Diseas/Assets/HDRP PostProcessing Profiles/HDRP_Cubes/Autumn3.cube
TITLE "27x27x27 Adobe/IRIDAS cube 3D LUT exported with GrossGrade v0.2 (beta) 64 bit"
DOMAIN_MIN 0 0 0
DOMAIN_MAX 1 1 1
LUT_3D_SIZE 27
0.021127738 0.021127170 0.021126082
0.021127738 0.021127170 0.021126082
0.021467950 0.021139223 0.021074772
0.022586007 0.021164646 0.020886956
0.024160784 0.021228280 0.020596657
0.026832895 0.021366183 0.020112757
0.031091224 0.021468652 0.019318331
0.040099066 0.021238944 0.017345853
0.053465664 0.020745799 0.014893144
0.079499848 0.019618958 0.011488088
0.121736504 0.017556466 0.008738250
0.196384415 0.012409007 0.003077589
0.271472275 0.011458747 0.001165565
0.327026099 0.013032870 0.000975737
0.343079746 0.017283443 0.001049474
0.385222644 0.020846441 0.001072231
0.570150852 0.020846441 0.001072231
0.797905684 0.020846441 0.001072231
1.049193501 0.020846441 0.001072231
1.365294576 0.020846441 0.001072231
1.729847789 0.020846441 0.001072231
2.142857075 0.020846441 0.001072231
2.666760445 0.020846441 0.001072231
3.247937918 0.020846441 0.001072231
3.953406334 0.020846441 0.001072231
4.794285774 0.020846441 0.001072231
5.716415405 0.020846441 0.001072231
0.021127738 0.021127170 0.021126082
0.021127738 0.021127170 0.021126082
0.021467950 0.021139223 0.021074772
0.022586007 0.021164646 0.020886956
0.024160784 0.021228280 0.020596657
0.026832895 0.021366183 0.020112757
0.031091224 0.021468652 0.019318331
0.040099066 0.021238944 0.017345853
0.053465664 0.020745799 0.014893144
0.079499848 0.019618958 0.011488088
0.121736504 0.017556466 0.008738250
0.196384415 0.012409007 0.003077589
0.271472275 0.011458747 0.001165565
0.327026099 0.013032870 0.000975737
0.343079746 0.017283443 0.001049474
0.385222644 0.020846441 0.001072231
0.570150852 0.020846441 0.001072231
0.797905684 0.020846441 0.001072231
1.049193501 0.020846441 0.001072231
1.365294576 0.020846441 0.001072231
1.729847789 0.020846441 0.001072231
2.142857075 0.020846441 0.001072231
2.666760445 0.020846441 0.001072231
3.247937918 0.020846441 0.001072231
3.953406334 0.020846441 0.001072231
4.794285774 0.020846441 0.001072231
5.716415405 0.020846441 0.001072231
0.021029541 0.021367997 0.021295380
0.021029541 0.021367997 0.021295380
0.021393152 0.021356704 0.021222230
0.022595288 0.021381447 0.021030396
0.024261555 0.021467077 0.020733830
0.026975481 0.021616688 0.020251375
0.031397343 0.021722775 0.019451015
0.040508393 0.021554314 0.017493617
0.054141242 0.021082357 0.015030310
0.080562368 0.020084025 0.011705369
0.123173006 0.018226944 0.008863633
0.197687209 0.013422247 0.003038757
0.272229642 0.012825794 0.001192247
0.327398479 0.014433943 0.001048845
0.342599124 0.018693166 0.001022448
0.384775132 0.022064347 0.001118386
0.569703341 0.022064347 0.001118386
0.797458172 0.022064347 0.001118386
1.048745990 0.022064347 0.001118386
1.364847064 0.022064347 0.001118386
1.729400277 0.022064347 0.001118386
2.142409563 0.022064347 0.001118386
2.666312933 0.022064347 0.001118386
3.247490406 0.022064347 0.001118386
3.952958822 0.022064347 0.001118386
4.793838501 0.022064347 0.001118386
5.715968132 0.022064347 0.001118386
0.020659996 0.022166124 0.021865075
0.020659996 0.022166124 0.021865075
0.020932993 0.022179309 0.021765649
0.022296058 0.022115598 0.021514211
0.024464441 0.022191847 0.021201409
0.027377011 0.022395756 0.020759374
0.032067265 0.022532461 0.020004909
0.041467767 0.022510719 0.018047284
0.055975277 0.022138759 0.015577972
0.083700068 0.021409936 0.012315390
0.127344295 0.020030625 0.009099294
0.201866761 0.016197421 0.003346162
0.275159121 0.016939564 0.001339456
0.327511907 0.018718164 0.001214009
0.341090769 0.022836890 0.001146308
0.383462906 0.025623770 0.001243149
0.568391085 0.025623770 0.001243149
0.796145916 0.025623770 0.001243149
1.047433734 0.025623770 0.001243149
1.363534808 0.025623770 0.001243149
1.728088021 0.025623770 0.001243149
2.141097546 0.025623770 0.001243149
2.665000916 0.025623770 0.001243149
3.246178150 0.025623770 0.001243149
3.951646805 0.025623770 0.001243149
4.792526245 0.025623770 0.001243149
5.714655876 0.025623770 0.001243149
0.020482559 0.023323398 0.022969523
0.020482559 0.023323398 0.022969523
0.020748181 0.023327272 0.022876889
0.021791931 0.023352509 0.022543617
0.024368653 0.023359183 0.022291914
0.027350720 0.023712724 0.022074185
0.032589599 0.023914224 0.021296442
0.042764042 0.023936825 0.018982766
0.058619846 0.023659416 0.016396778
0.087825537 0.023379464 0.013071360
0.134349912 0.022218477 0.009307493
0.210207939 0.019683462 0.003237487
0.279817551 0.022326574 0.001633733
0.328828424 0.024851449 0.001345353
0.339075655 0.028469125 0.001322234
0.382063657 0.030684402 0.001269972
0.566991806 0.030684402 0.001269972
0.794746637 0.030684402 0.001269972
1.046034455 0.030684402 0.001269972
1.362135530 0.030684402 0.001269972
1.726688743 0.030684402 0.001269972
2.139698267 0.030684402 0.001269972
2.663601637 0.030684402 0.001269972
3.244779110 0.030684402 0.001269972
3.950247526 0.030684402 0.001269972
4.791126728 0.030684402 0.001269972
5.713256359 0.030684402 0.001269972
0.019672642 0.025408020 0.025136964
0.019672642 0.025408020 0.025136964
0.020114738 0.025341585 0.024960808
0.021149877 0.025353804 0.024605991
0.023627380 0.025389949 0.023950206
0.027136469 0.025758941 0.023961570
0.032392889 0.026242035 0.023616659
0.044711329 0.026321698 0.020377753
0.062731802 0.026128063 0.017215531
0.093302242 0.026290976 0.014292272
0.147381499 0.024807913 0.008598253
0.221507475 0.024502238 0.003373858
0.290186316 0.029015021 0.002111824
0.330686063 0.033137437 0.001422784
0.337413788 0.036521759 0.001352114
0.380522937 0.037838135 0.001382173
0.565451145 0.037838135 0.001382173
0.793205976 0.037838135 0.001382173
1.044493794 0.037838135 0.001382173
1.360594869 0.037838135 0.001382173
1.725148082 0.037838135 0.001382173
2.138157368 0.037838135 0.001382173
2.662060738 0.037838135 0.001382173
3.243238211 0.037838135 0.001382173
3.948706627 0.037838135 0.001382173
4.789586067 0.037838135 0.001382173
5.711715698 0.037838135 0.001382173
0.010853704 0.030843019 0.030730102
0.010853704 0.030843019 0.030730102
0.011318124 0.030743461 0.030518504
0.013185863 0.030462585 0.029695516
0.016784443 0.030232897 0.028084194
0.027780013 0.028821135 0.023460262
0.035459537 0.029344738 0.021979161
0.049683288 0.029358638 0.019923544
0.068410389 0.029544847 0.017759649
0.105443552 0.029361004 0.013850886
0.164745957 0.028066801 0.007003361
0.235278249 0.030894822 0.003272901
0.302292943 0.037253991 0.002383114
0.333666742 0.042509176 0.001775928
0.336158812 0.046008669 0.001381560
0.379521489 0.046394661 0.001394603
0.564449668 0.046394661 0.001394603
0.792204499 0.046394661 0.001394603
1.043492317 0.046394661 0.001394603
1.359593391 0.046394661 0.001394603
1.724146605 0.046394661 0.001394603
2.137156010 0.046394661 0.001394603
2.661059380 0.046394661 0.001394603
3.242236853 0.046394661 0.001394603
3.947705269 0.046394661 0.001394603
4.788584709 0.046394661 0.001394603
5.710714340 0.046394661 0.001394603
0.000635009 0.041351870 0.043993674
0.000635009 0.041351870 0.043993674
0.000684404 0.041328423 0.043588445
0.000974497 0.041191030 0.042160891
0.001808966 0.040988453 0.039143611
0.007041069 0.041014183 0.030717490
0.033245672 0.036893059 0.017610144
0.060936403 0.034098070 0.015330505
0.084597237 0.033479258 0.014091027
0.128159240 0.033087242 0.009830471
0.185747743 0.034246109 0.004704336
0.252206743 0.040566176 0.003408750
0.314629346 0.048697561 0.002571227
0.335557491 0.054669734 0.002016210
0.335630417 0.057728145 0.001587266
0.379011780 0.057106063 0.001592073
0.563939929 0.057106063 0.001592073
0.791694760 0.057106063 0.001592073
1.042982578 0.057106063 0.001592073
1.359083652 0.057106063 0.001592073
1.723636866 0.057106063 0.001592073
2.136646271 0.057106063 0.001592073
2.660549641 0.057106063 0.001592073
3.241727114 0.057106063 0.001592073
3.947195530 0.057106063 0.001592073
4.788074970 0.057106063 0.001592073
5.710204601 0.057106063 0.001592073
0.000000000 0.056446638 0.039839592
0.000000000 0.056446638 0.039839592
0.000000000 0.056479409 0.038953610
0.000000000 0.056527097 0.037305199
0.000000000 0.056451466 0.037656780
0.000000000 0.057205226 0.034010291
0.000345287 0.057584111 0.021022782
0.055449411 0.047476143 0.005161243
0.103748061 0.041146442 0.005446887
0.149482146 0.040088825 0.003644909
0.202287957 0.045484301 0.002965714
0.272106975 0.054488774 0.002928504
0.323074847 0.064129315 0.002318384
0.336544275 0.070171572 0.001922635
0.336467028 0.072017491 0.001622448
0.379613787 0.070150189 0.001657899
0.564541936 0.070150189 0.001657899
0.792296767 0.070150189 0.001657899
1.043584585 0.070150189 0.001657899
1.359685659 0.070150189 0.001657899
1.724238873 0.070150189 0.001657899
2.137248278 0.070150189 0.001657899
2.661151648 0.070150189 0.001657899
3.242329121 0.070150189 0.001657899
3.947797537 0.070150189 0.001657899
4.788677216 0.070150189 0.001657899
5.710806847 0.070150189 0.001657899
0.000000000 0.084591582 0.003084819
0.000000000 0.084591582 0.003084819
0.000000000 0.084594414 0.002813173
0.000000000 0.084599406 0.002253470
0.000000000 0.084613442 0.002159817
0.000000000 0.084949076 0.002097969
0.000000000 0.085906520 0.001748929
0.000616369 0.087450363 0.000997153
0.053747650 0.080684930 0.000204415
0.147376582 0.068006016 0.000953444
0.214088723 0.068080977 0.001631169
0.288687855 0.080195084 0.001762135
0.331997126 0.090269215 0.001559127
0.340148091 0.093214646 0.001386733
0.339841634 0.092703305 0.001282902
0.382518560 0.089042261 0.001381566
0.567446709 0.089042261 0.001381566
0.795201540 0.089042261 0.001381566
1.046489358 0.089042261 0.001381566
1.362590432 0.089042261 0.001381566
1.727143645 0.089042261 0.001381566
2.140153170 0.089042261 0.001381566
2.664056540 0.089042261 0.001381566
3.245234013 0.089042261 0.001381566
3.950702429 0.089042261 0.001381566
4.791581631 0.089042261 0.001381566
5.713711262 0.089042261 0.001381566
0.000000000 0.131628275 0.000415740
0.000000000 0.131628275 0.000415740
0.000000000 0.131686509 0.000415688
0.000000000 0.131831810 0.000394657
0.000000000 0.131976023 0.000382864
0.000000000 0.132138968 0.000383606
0.000000000 0.132680580 0.000379505
0.000000000 0.134569883 0.000364028
0.000000000 0.137488768 0.000350336
0.050351225 0.137072369 0.000100656
0.198040128 0.119022474 0.000225315
0.292302698 0.120559141 0.000505596
0.339805156 0.130104169 0.000519983
0.349344224 0.128179103 0.000572511
0.346958250 0.120632656 0.000761534
0.388123959 0.113476641 0.000933195
0.573052168 0.113476641 0.000933195
0.800806999 0.113476641 0.000933195
1.052094817 0.113476641 0.000933195
1.368195891 0.113476641 0.000933195
1.732749104 0.113476641 0.000933195
2.145758390 0.113476641 0.000933195
2.669661760 0.113476641 0.000933195
3.250839233 0.113476641 0.000933195
3.956307650 0.113476641 0.000933195
4.797187328 0.113476641 0.000933195
5.719316959 0.113476641 0.000933195
0.000000000 0.201826468 0.000070717
0.000000000 0.201826468 0.000070717
0.000000000 0.201897621 0.000069922
0.000000000 0.202098593 0.000067677
0.000000000 0.202342749 0.000064950
0.000000000 0.202518910 0.000062983
0.000000000 0.202707186 0.000060880
0.000000000 0.203339785 0.000053814
0.000000000 0.204857215 0.000038814
0.000000000 0.208258107 0.000033047
0.072946981 0.214893371 0.000000000
0.265430212 0.199301139 0.000000000
0.351239383 0.192798033 0.000000000
0.372741938 0.188783556 0.000003168
0.365218312 0.168683931 0.000062317
0.401046306 0.150888830 0.000226860
0.585974455 0.150888830 0.000226860
0.813729286 0.150888830 0.000226860
1.065017104 0.150888830 0.000226860
1.381118178 0.150888830 0.000226860
1.745671391 0.150888830 0.000226860
2.158680916 0.150888830 0.000226860
2.682584286 0.150888830 0.000226860
3.263761759 0.150888830 0.000226860
3.969230175 0.150888830 0.000226860
4.810109615 0.150888830 0.000226860
5.732239246 0.150888830 0.000226860
0.000000000 0.281788468 0.000072690
0.000000000 0.281788468 0.000072690
0.000000000 0.281834036 0.000072676
0.000000000 0.281987160 0.000072629
0.000000000 0.282220811 0.000072558
0.000000000 0.282362878 0.000072515
0.000000000 0.282375664 0.000072511
0.000000000 0.282285422 0.000072538
0.000000000 0.282321066 0.000072527
0.000000000 0.282670945 0.000072599
0.000000000 0.286855370 0.000084920
0.112725146 0.308379918 0.000000000
0.342730761 0.300323963 0.000000000
0.415551424 0.285486490 0.000000000
0.409767836 0.255673885 0.000000000
0.434484541 0.222164288 0.000000000
0.619412720 0.222164288 0.000000000
0.847167552 0.222164288 0.000000000
1.098455429 0.222164288 0.000000000
1.414556503 0.222164288 0.000000000
1.779109716 0.222164288 0.000000000
2.192119122 0.222164288 0.000000000
2.716022491 0.222164288 0.000000000
3.297199965 0.222164288 0.000000000
4.002668381 0.222164288 0.000000000
4.843547821 0.222164288 0.000000000
5.765677452 0.222164288 0.000000000
0.000000000 0.366897970 0.001445074
0.000000000 0.366897970 0.001445074
0.000000000 0.366909802 0.001439751
0.000000000 0.366978168 0.001434699
0.000000000 0.367092580 0.001430716
0.000000000 0.367171407 0.001439791
0.000000000 0.367138028 0.001618660
0.000000000 0.366784483 0.001986636
0.000000000 0.366567016 0.004372231
0.000000000 0.367114037 0.013128296
0.000000000 0.365094513 0.002114907
0.000001341 0.374811947 0.000972933
0.194978565 0.418536156 0.000000000
0.417603523 0.402960598 0.000003436
0.476859242 0.376278073 0.000000000
0.496119499 0.332811236 0.000000000
0.681047678 0.332811236 0.000000000
0.908802509 0.332811236 0.000000000
1.160090327 0.332811236 0.000000000
1.476191401 0.332811236 0.000000000
1.840744615 0.332811236 0.000000000
2.253754139 0.332811236 0.000000000
2.777657509 0.332811236 0.000000000
3.358834743 0.332811236 0.000000000
4.064303398 0.332811236 0.000000000
4.905182838 0.332811236 0.000000000
5.827312469 0.332811236 0.000000000
0.000000000 0.478576094 0.159792513
0.000000000 0.478576094 0.159792513
0.000000000 0.478688776 0.160514414
0.000000000 0.479026914 0.162720859
0.000000000 0.479535788 0.166103616
0.000000000 0.480375886 0.171696857
0.000000000 0.482033104 0.182647422
0.000000000 0.474911749 0.207978755
0.000000000 0.461414158 0.242635399
0.000000000 0.444135487 0.291601121
0.000000000 0.439441442 0.308055878
0.000000000 0.474983990 0.200229928
0.033397321 0.480415076 0.032428559
0.262997329 0.535485566 0.000173883
0.491880298 0.503289700 0.000231157
0.574096262 0.482154995 0.000232794
0.759024441 0.482154995 0.000232794
0.986779273 0.482154995 0.000232794
1.238067150 0.482154995 0.000232794
1.554168224 0.482154995 0.000232794
1.918721437 0.482154995 0.000232794
2.331730843 0.482154995 0.000232794
2.855634212 0.482154995 0.000232794
3.436811686 0.482154995 0.000232794
4.142280102 0.482154995 0.000232794
4.983159542 0.482154995 0.000232794
5.905289173 0.482154995 0.000232794
0.000000000 0.485085130 0.379239291
0.000000000 0.485085130 0.379239291
0.000000000 0.484992921 0.379914820
0.000000000 0.484714001 0.381957471
0.000000000 0.484312743 0.384970844
0.000000000 0.483740121 0.390010715
0.000000000 0.482964337 0.396589428
0.000000000 0.481724262 0.405304343
0.000000000 0.479846120 0.419899702
0.000000000 0.477243185 0.437725931
0.000000000 0.474288106 0.454612464
0.000000000 0.479521453 0.453487039
0.003943340 0.510958195 0.368232846
0.165842682 0.574200213 0.061725773
0.383227289 0.630465448 0.000385861
0.585002363 0.596713066 0.000834297
0.695697963 0.593439817 0.001105880
0.923452795 0.593439817 0.001105880
1.174740791 0.593439817 0.001105880
1.490841866 0.593439817 0.001105880
1.855395079 0.593439817 0.001105880
2.268404245 0.593439817 0.001105880
2.792307615 0.593439817 0.001105880
3.373485327 0.593439817 0.001105880
4.078953743 0.593439817 0.001105880
4.919833183 0.593439817 0.001105880
5.841962814 0.593439817 0.001105880
0.000000000 0.673469245 0.387498975
0.000000000 0.673469245 0.387498975
0.000000000 0.673414648 0.388273180
0.000000000 0.673250079 0.390614361
0.000000000 0.673009574 0.394044638
0.000000000 0.672632277 0.399554849
0.000000000 0.672131181 0.406807303
0.000000000 0.671400309 0.416852057
0.000000000 0.670231700 0.433239222
0.000000000 0.668634236 0.453646779
0.000000000 0.666816771 0.473496974
0.000000000 0.672090352 0.471749872
0.004082445 0.697892368 0.372172028
0.165842682 0.759128392 0.061725773
0.383227289 0.815393627 0.000385861
0.652677476 0.831452668 0.001555680
0.778159738 0.838128924 0.002035249
1.005914569 0.838128924 0.002035249
1.257202506 0.838128924 0.002035249
1.573303580 0.838128924 0.002035249
1.937856793 0.838128924 0.002035249
2.350865841 0.838128924 0.002035249
2.874769211 0.838128924 0.002035249
3.455946922 0.838128924 0.002035249
4.161415577 0.838128924 0.002035249
5.002295017 0.838128924 0.002035249
5.924424648 0.838128924 0.002035249
0.000000000 0.901224077 0.387498975
0.000000000 0.901224077 0.387498975
0.000000000 0.901169479 0.388273180
0.000000000 0.901004910 0.390614361
0.000000000 0.900764406 0.394044638
0.000000000 0.900387108 0.399554849
0.000000000 0.899886012 0.406807303
0.000000000 0.899155140 0.416852057
0.000000000 0.897986531 0.433239222
0.000000000 0.896389067 0.453646779
0.000000000 0.894571602 0.473496974
0.000000000 0.899845183 0.471749872
0.004082445 0.925647199 0.372172028
0.165842682 0.986883223 0.061725773
0.383227289 1.043148518 0.000385861
0.652677476 1.059207439 0.001555680
0.778159738 1.065883756 0.002035249
1.005914569 1.065883756 0.002035249
1.257202506 1.065883756 0.002035249
1.573303580 1.065883756 0.002035249
1.937856793 1.065883756 0.002035249
2.350865841 1.065883756 0.002035249
2.874769211 1.065883756 0.002035249
3.455946922 1.065883756 0.002035249
4.161415577 1.065883756 0.002035249
5.002295017 1.065883756 0.002035249
5.924424648 1.065883756 0.002035249
0.000000000 1.152511835 0.387498975
0.000000000 1.152511835 0.387498975
0.000000000 1.152457237 0.388273180
0.000000000 1.152292609 0.390614361
0.000000000 1.152052164 0.394044638
0.000000000 1.151674747 0.399554849
0.000000000 1.151173711 0.406807303
0.000000000 1.150442839 0.416852057
0.000000000 1.149274230 0.433239222
0.000000000 1.147676706 0.453646779
0.000000000 1.145859241 0.473496974
0.000000000 1.151132822 0.471749872
0.004082445 1.176934958 0.372172028
0.165842682 1.238170862 0.061725773
0.383227289 1.294436216 0.000385861
0.652677476 1.310495138 0.001555680
0.778159738 1.317171454 0.002035249
1.005914569 1.317171454 0.002035249
1.257202506 1.317171454 0.002035249
1.573303580 1.317171454 0.002035249
1.937856793 1.317171454 0.002035249
2.350865841 1.317171454 0.002035249
2.874769211 1.317171454 0.002035249
3.455946922 1.317171454 0.002035249
4.161415577 1.317171454 0.002035249
5.002295017 1.317171454 0.002035249
5.924424648 1.317171454 0.002035249
0.000000000 1.468612909 0.387498975
0.000000000 1.468612909 0.387498975
0.000000000 1.468558550 0.388273180
0.000000000 1.468393803 0.390614361
0.000000000 1.468153238 0.394044638
0.000000000 1.467776060 0.399554849
0.000000000 1.467275023 0.406807303
0.000000000 1.466544032 0.416852057
0.000000000 1.465375543 0.433239222
0.000000000 1.463777781 0.453646779
0.000000000 1.461960554 0.473496974
0.000000000 1.467233896 0.471749872
0.004082445 1.493036032 0.372172028
0.165842682 1.554271936 0.061725773
0.383227289 1.610537291 0.000385861
0.652677476 1.626596212 0.001555680
0.778159738 1.633272648 0.002035249
1.005914569 1.633272648 0.002035249
1.257202506 1.633272648 0.002035249
1.573303580 1.633272648 0.002035249
1.937856793 1.633272648 0.002035249
2.350865841 1.633272648 0.002035249
2.874769211 1.633272648 0.002035249
3.455946922 1.633272648 0.002035249
4.161415577 1.633272648 0.002035249
5.002295017 1.633272648 0.002035249
5.924424648 1.633272648 0.002035249
0.000000000 1.833166122 0.387498975
0.000000000 1.833166122 0.387498975
0.000000000 1.833111763 0.388273180
0.000000000 1.832947135 0.390614361
0.000000000 1.832706451 0.394044638
0.000000000 1.832329035 0.399554849
0.000000000 1.831828237 0.406807303
0.000000000 1.831097126 0.416852057
0.000000000 1.829928756 0.433239222
0.000000000 1.828330994 0.453646779
0.000000000 1.826513529 0.473496974
0.000000000 1.831787109 0.471749872
0.004082445 1.857589245 0.372172028
0.165842682 1.918825150 0.061725773
0.383227289 1.975090504 0.000385861
0.652677476 1.991149426 0.001555680
0.778159738 1.997825861 0.002035249
1.005914569 1.997825861 0.002035249
1.257202506 1.997825861 0.002035249
1.573303580 1.997825861 0.002035249
1.937856793 1.997825861 0.002035249
2.350865841 1.997825861 0.002035249
2.874769211 1.997825861 0.002035249
3.455946922 1.997825861 0.002035249
4.161415577 1.997825861 0.002035249
5.002295017 1.997825861 0.002035249
5.924424648 1.997825861 0.002035249
0.000000000 2.246175528 0.387498975
0.000000000 2.246175528 0.387498975
0.000000000 2.246121168 0.388273180
0.000000000 2.245956421 0.390614361
0.000000000 2.245715857 0.394044638
0.000000000 2.245338678 0.399554849
0.000000000 2.244837761 0.406807303
0.000000000 2.244106770 0.416852057
0.000000000 2.242938042 0.433239222
0.000000000 2.241340399 0.453646779
0.000000000 2.239523172 0.473496974
0.000000000 2.244796515 0.471749872
0.004082445 2.270598650 0.372172028
0.165842682 2.331834555 0.061725773
0.383227289 2.388100147 0.000385861
0.652677476 2.404158831 0.001555680
0.778159738 2.410835266 0.002035249
1.005914569 2.410835266 0.002035249
1.257202506 2.410835266 0.002035249
1.573303580 2.410835266 0.002035249
1.937856793 2.410835266 0.002035249
2.350865841 2.410835266 0.002035249
2.874769211 2.410835266 0.002035249
3.455946922 2.410835266 0.002035249
4.161415577 2.410835266 0.002035249
5.002295017 2.410835266 0.002035249
5.924424648 2.410835266 0.002035249
0.000000000 2.770078897 0.387498975
0.000000000 2.770078897 0.387498975
0.000000000 2.770024538 0.388273180
0.000000000 2.769859791 0.390614361
0.000000000 2.769619226 0.394044638
0.000000000 2.769242048 0.399554849
0.000000000 2.768741131 0.406807303
0.000000000 2.768010139 0.416852057
0.000000000 2.766841412 0.433239222
0.000000000 2.765243769 0.453646779
0.000000000 2.763426542 0.473496974
0.000000000 2.768699884 0.471749872
0.004082445 2.794502020 0.372172028
0.165842682 2.855737925 0.061725773
0.383227289 2.912003517 0.000385861
0.652677476 2.928062201 0.001555680
0.778159738 2.934738636 0.002035249
1.005914569 2.934738636 0.002035249
1.257202506 2.934738636 0.002035249
1.573303580 2.934738636 0.002035249
1.937856793 2.934738636 0.002035249
2.350865841 2.934738636 0.002035249
2.874769211 2.934738636 0.002035249
3.455946922 2.934738636 0.002035249
4.161415577 2.934738636 0.002035249
5.002295017 2.934738636 0.002035249
5.924424648 2.934738636 0.002035249
0.000000000 3.351256371 0.387498975
0.000000000 3.351256371 0.387498975
0.000000000 3.351202011 0.388273180
0.000000000 3.351037502 0.390614361
0.000000000 3.350796700 0.394044638
0.000000000 3.350419283 0.399554849
0.000000000 3.349918365 0.406807303
0.000000000 3.349187374 0.416852057
0.000000000 3.348019123 0.433239222
0.000000000 3.346421242 0.453646779
0.000000000 3.344603777 0.473496974
0.000000000 3.349877357 0.471749872
0.004082445 3.375679493 0.372172028
0.165842682 3.436915398 0.061725773
0.383227289 3.493180752 0.000385861
0.652677476 3.509239674 0.001555680
0.778159738 3.515916109 0.002035249
1.005914569 3.515916109 0.002035249
1.257202506 3.515916109 0.002035249
1.573303580 3.515916109 0.002035249
1.937856793 3.515916109 0.002035249
2.350865841 3.515916109 0.002035249
2.874769211 3.515916109 0.002035249
3.455946922 3.515916109 0.002035249
4.161415577 3.515916109 0.002035249
5.002295017 3.515916109 0.002035249
5.924424648 3.515916109 0.002035249
0.000000000 4.056725025 0.387498975
0.000000000 4.056725025 0.387498975
0.000000000 4.056670189 0.388273180
0.000000000 4.056505680 0.390614361
0.000000000 4.056264877 0.394044638
0.000000000 4.055888176 0.399554849
0.000000000 4.055386543 0.406807303
0.000000000 4.054656029 0.416852057
0.000000000 4.053487301 0.433239222
0.000000000 4.051889896 0.453646779
0.000000000 4.050072670 0.473496974
0.000000000 4.055346012 0.471749872
0.004082445 4.081148148 0.372172028
0.165842682 4.142384052 0.061725773
