Diseas/Assets/HDRP PostProcessing Profiles/HDRP_Cubes/Autumn3.cube
TITLE "27x27x27 Adobe/IRIDAS cube 3D LUT exported with GrossGrade v0.2 (beta) 64 bit"
LUT_3D_SIZE 5
DOMAIN_MIN 0.000000 0.000000 0.000000
DOMAIN_MAX 0.923077 0.923077 0.923077
0.021127738 0.021127170 0.021126082
0.031091224 0.021468652 0.019318331
0.271472275 0.011458747 0.001165565
1.049193501 0.020846441 0.001072231
3.953406334 0.020846441 0.001072231
0.010853704 0.030843019 0.030730102
0.035459537 0.029344738 0.021979161
0.302292943 0.037253991 0.002383114
1.043492317 0.046394661 0.001394603
3.947705269 0.046394661 0.001394603
0.000000000 0.281788468 0.000072690
0.000000000 0.282375664 0.000072511
0.342730761 0.300323963 0.000000000
1.098455429 0.222164288 0.000000000
4.002668381 0.222164288 0.000000000
0.000000000 1.152511835 0.387498975
0.000000000 1.151173711 0.406807303
0.004082445 1.176934958 0.372172028
1.257202506 1.317171454 0.002035249
4.161415577 1.317171454 0.002035249
0.000000000 4.056725025 0.387498975
0.000000000 4.055386543 0.406807303
0.004082445 4.081148148 0.372172028
1.257202506 4.221384525 0.002035249
4.161415577 4.221384525 0.002035249
0.013257963 0.023079172 0.029982049
0.029845813 0.020967519 0.024441872
0.262657195 0.000000000 0.007264118
1.068954706 0.000000000 0.000010301
3.973167419 0.000000000 0.000010301
0.010723982 0.031987723 0.039339785
0.029003490 0.029629737 0.029818708
0.269135118 0.017541772 0.004186326
1.047311306 0.025955522 0.001254677
3.951524258 0.025955522 0.001254677
0.000000000 0.282534778 0.031071238
0.000000000 0.280501544 0.009772181
0.343707502 0.296579272 0.000000000
1.093065381 0.211638376 0.000000000
3.997278214 0.211638376 0.000000000
0.000000000 1.146604300 0.466483146
0.000000000 1.146236897 0.472489238
0.125265539 1.241966963 0.510327995
1.258953691 1.317171454 0.002035249
4.163167000 1.317171454 0.002035249
0.000000000 4.050817013 0.466483146
0.000000000 4.050449848 0.472489238
0.125265539 4.146180153 0.510327995
1.258953691 4.221384525 0.002035249
4.163167000 4.221384525 0.002035249
0.000000000 0.035316613 0.344363242
0.000000000 0.015625698 0.424024522
0.268301159 0.000000000 0.276125520
1.088209510 0.000000000 0.159314260
3.992422581 0.000000000 0.159314260
0.000000000 0.071591847 0.216310531
0.000000000 0.045376986 0.318952620
0.268892616 0.000000000 0.276350349
1.087030411 0.000000000 0.162500039
3.991243362 0.000000000 0.162500039
0.000000000 0.265976161 0.387619734
0.000000000 0.263178825 0.384842545
0.305138439 0.308627754 0.309397638
1.196081519 0.379830897 0.345283896
4.100294113 0.379830897 0.345283896
0.291672230 1.303978920 0.650442541
0.377422482 1.341785192 0.677143693
0.696986794 1.480592489 0.774073780
1.545906782 1.566119194 0.765676081
4.450119495 1.566119194 0.765676081
0.291672230 4.208192348 0.650442541
0.377422482 4.245998383 0.677143693
0.696986794 4.384805679 0.774073780
1.545906782 4.470332146 0.765676081
4.450119495 4.470332146 0.765676081
0.000000000 0.033131931 1.195912242
0.000000000 0.015972244 1.295639277
0.111117445 0.000000000 1.185559988
1.081875086 0.000000000 1.087146044
3.986088276 0.000000000 1.087146044
0.000000000 0.069789089 1.092509031
0.000000000 0.037373982 1.177730560
0.095257893 0.000002468 1.194781065
1.081875086 0.000000000 1.087146044
3.986088276 0.000000000 1.087146044
0.000000000 0.221553683 1.067669868
0.000000000 0.219242066 1.064329386
0.086053029 0.243936002 0.963582098
1.220225334 0.360405505 1.035454035
4.124438286 0.360405505 1.035454035
0.000000000 1.144392014 1.239145994
0.000000000 1.144392014 1.239145994
0.506544173 1.410752535 1.446237803
1.707370043 1.707370639 1.707368255
4.611582756 1.707370639 1.707368255
0.000000000 4.048604965 1.239145994
0.000000000 4.048604965 1.239145994
0.506544173 4.314965725 1.446237803
1.707370043 4.611583710 1.707368255
4.611582756 4.611583710 1.707368255
0.000000000 0.033131931 4.100125313
0.000000000 0.015972244 4.199852467
0.111117445 0.000000000 4.089773178
1.081875086 0.000000000 3.991358995
3.986088276 0.000000000 3.991358995
0.000000000 0.069789089 3.996721983
0.000000000 0.037373982 4.081943512
0.095257893 0.000002468 4.098993778
1.081875086 0.000000000 3.991358995
3.986088276 0.000000000 3.991358995
0.000000000 0.221553683 3.971882820
0.000000000 0.219242066 3.968542576
0.086053029 0.243936002 3.867795229
1.220225334 0.360405505 3.939666986
4.124438286 0.360405505 3.939666986
0.000000000 1.144392014 4.143359184
0.000000000 1.144392014 4.143359184
0.506544173 1.410752535 4.350450993
1.707370043 1.707370639 4.611581802
4.611582756 1.707370639 4.611581802
0.000000000 4.048604965 4.143359184
0.000000000 4.048604965 4.143359184
0.506544173 4.314965725 4.350450993
1.707370043 4.611583710 4.611581802
4.611582756 4.611583710 4.611581802
