Diseas/Assets/HDRP PostProcessing Profiles/HDRP_Cubes/Autumn3.cube
TITLE "27x27x27 Adobe/IRIDAS cube 3D LUT exported with GrossGrade v0.2 (beta) 64 bit"
LUT_3D_SIZE 7
DOMAIN_MIN 0.000000 0.000000 0.000000
DOMAIN_MAX 0.923077 0.923077 0.923077
0.021127738 0.021127170 0.021126082
0.024160784 0.021228280 0.020596657
0.053465664 0.020745799 0.014893144
0.271472275 0.011458747 0.001165565
0.570150852 0.020846441 0.001072231
1.729847789 0.020846441 0.001072231
3.953406334 0.020846441 0.001072231
0.020482559 0.023323398 0.022969523
0.024368653 0.023359183 0.022291914
0.058619846 0.023659416 0.016396778
0.279817551 0.022326574 0.001633733
0.566991806 0.030684402 0.001269972
1.726688743 0.030684402 0.001269972
3.950247526 0.030684402 0.001269972
0.000000000 0.056446638 0.039839592
0.000000000 0.056451466 0.037656780
0.103748061 0.041146442 0.005446887
0.323074847 0.064129315 0.002318384
0.564541936 0.070150189 0.001657899
1.724238873 0.070150189 0.001657899
3.947797537 0.070150189 0.001657899
0.000000000 0.281788468 0.000072690
0.000000000 0.282220811 0.000072558
0.000000000 0.282321066 0.000072527
0.342730761 0.300323963 0.000000000
0.619412720 0.222164288 0.000000000
1.779109716 0.222164288 0.000000000
4.002668381 0.222164288 0.000000000
0.000000000 0.673469245 0.387498975
0.000000000 0.673009574 0.394044638
0.000000000 0.670231700 0.433239222
0.004082445 0.697892368 0.372172028
0.778159738 0.838128924 0.002035249
1.937856793 0.838128924 0.002035249
4.161415577 0.838128924 0.002035249
0.000000000 1.833166122 0.387498975
0.000000000 1.832706451 0.394044638
0.000000000 1.829928756 0.433239222
0.004082445 1.857589245 0.372172028
0.778159738 1.997825861 0.002035249
1.937856793 1.997825861 0.002035249
4.161415577 1.997825861 0.002035249
0.000000000 4.056725025 0.387498975
0.000000000 4.056264877 0.394044638
0.000000000 4.053487301 0.433239222
0.004082445 4.081148148 0.372172028
0.778159738 4.221384525 0.002035249
1.937856793 4.221384525 0.002035249
4.161415577 4.221384525 0.002035249
0.019610539 0.021562519 0.023094971
0.023379434 0.021243405 0.022082087
0.052943882 0.018544136 0.014512925
0.273055226 0.000000000 0.000505956
0.575418472 0.010049004 0.000745403
1.735115528 0.010049004 0.000745403
3.958673954 0.010049004 0.000745403
0.020215908 0.023843503 0.024962338
0.023388255 0.023566464 0.023613825
0.052889645 0.023090567 0.017318549
0.272818923 0.012244490 0.001298687
0.569693923 0.022089956 0.001119356
1.729390860 0.022089956 0.001119356
3.952949524 0.022089956 0.001119356
0.000000000 0.054932568 0.060095653
0.000000000 0.055411611 0.055778489
0.093173660 0.042244248 0.012473928
0.321157217 0.059428688 0.002459309
0.564057469 0.065556005 0.001700523
1.723754406 0.065556005 0.001700523
3.947313070 0.065556005 0.001700523
0.000000000 0.280682206 0.000073027
0.000000000 0.281117827 0.000072894
0.000000000 0.281543046 0.000129920
0.342734784 0.299077243 0.000000000
0.617545962 0.218490332 0.000000000
1.777242899 0.218490332 0.000000000
4.000801563 0.218490332 0.000000000
0.000000000 0.670850694 0.424524099
0.000000000 0.670533895 0.428984344
0.000000000 0.668606400 0.453979105
0.041478638 0.721612751 0.432135463
0.778605103 0.838128924 0.002035249
1.938302159 0.838128924 0.002035249
4.161860943 0.838128924 0.002035249
0.000000000 1.830547810 0.424524099
0.000000000 1.830230951 0.428984344
0.000000000 1.828303218 0.453979105
0.041478638 1.881309748 0.432135463
0.778605103 1.997825861 0.002035249
1.938302159 1.997825861 0.002035249
4.161860943 1.997825861 0.002035249
0.000000000 4.054106236 0.424524099
0.000000000 4.053789616 0.428984344
0.000000000 4.051862240 0.453979105
0.041478638 4.104868412 0.432135463
0.778605103 4.221384525 0.002035249
1.938302159 4.221384525 0.002035249
4.161860943 4.221384525 0.002035249
0.000102513 0.026939295 0.057510618
0.001162909 0.026686316 0.059405144
0.083692260 0.008621435 0.032415655
0.280495226 0.000000000 0.019991424
0.553252816 0.000000000 0.014299978
1.712949634 0.000000000 0.014299978
3.936508179 0.000000000 0.014299978
0.000426420 0.031905100 0.056676410
0.000697499 0.028933208 0.055140611
0.074989408 0.014231926 0.030853596
0.277996272 0.000000000 0.017813716
0.552434564 0.000000000 0.013852478
1.712131381 0.000000000 0.013852478
3.935690165 0.000000000 0.013852478
0.000000000 0.055079479 0.084284708
0.000000000 0.054725356 0.083799757
0.047446623 0.048056692 0.048192032
0.245794520 0.043522161 0.020856995
0.572768688 0.047640681 0.013866401
1.732465506 0.047640681 0.013866401
3.956024170 0.047640681 0.013866401
0.000000000 0.290993154 0.243948147
0.000000000 0.291525483 0.239508748
0.000000000 0.294090599 0.222458571
0.389721364 0.261417478 0.011009589
0.608379364 0.199487597 0.000000000
1.768076301 0.199487597 0.000000000
3.991634846 0.199487597 0.000000000
0.000000000 0.665886462 0.500947118
0.000000000 0.665836871 0.501850605
0.011960380 0.693247139 0.525899291
0.275234014 0.825077295 0.593939424
0.784760118 0.838128924 0.002035249
1.944457173 0.838128924 0.002035249
4.168015957 0.838128924 0.002035249
0.000000000 1.825583458 0.500947118
0.000000000 1.825533628 0.501850605
0.011960380 1.852944136 0.525899291
0.275234014 1.984774232 0.593939424
0.784760118 1.997825861 0.002035249
1.944457173 1.997825861 0.002035249
4.168015957 1.997825861 0.002035249
0.000000000 4.049141884 0.500947118
0.000000000 4.049092770 0.501850605
0.011960380 4.076502800 0.525899291
0.275234014 4.208333015 0.593939424
0.784760118 4.221384525 0.002035249
1.944457173 4.221384525 0.002035249
4.168015957 4.221384525 0.002035249
0.000000000 0.035316613 0.344363242
0.000000000 0.026248286 0.366152108
0.000000000 0.011736360 0.443382978
0.268301159 0.000000000 0.276125520
0.609166861 0.000000000 0.159314260
1.768863797 0.000000000 0.159314260
3.992422581 0.000000000 0.159314260
0.000000000 0.053280450 0.285030931
0.000000000 0.038931072 0.336656660
0.000000000 0.012163937 0.444156021
0.268503934 0.000000000 0.276236445
0.609020591 0.000000000 0.159709498
1.768717647 0.000000000 0.159709498
3.992275953 0.000000000 0.159709498
0.000000000 0.099233992 0.198052168
0.000000000 0.094915047 0.196857601
0.000000000 0.060650058 0.254868746
0.268478423 0.000000000 0.271389544
0.590952575 0.013791583 0.072739325
1.750649452 0.013791583 0.072739325
3.974208117 0.013791583 0.072739325
0.000000000 0.265976161 0.387619734
0.000000000 0.265047729 0.386681199
0.000000000 0.259462476 0.381180674
0.305138439 0.308627754 0.309397638
0.717038751 0.379830897 0.345283896
1.876735806 0.379830897 0.345283896
4.100294113 0.379830897 0.345283896
0.291672230 0.824936450 0.650442541
0.322731018 0.838857293 0.660487413
0.471080571 0.903451741 0.704126298
0.696986794 1.001549959 0.774073780
1.066864014 1.087076664 0.765676081
2.226561069 1.087076664 0.765676081
4.450119495 1.087076664 0.765676081
0.291672230 1.984633446 0.650442541
0.322731018 1.998554111 0.660487413
0.471080571 2.063148499 0.704126298
0.696986794 2.161247015 0.774073780
1.066864014 2.246773720 0.765676081
2.226561069 2.246773720 0.765676081
4.450119495 2.246773720 0.765676081
0.291672230 4.208192348 0.650442541
0.322731018 4.222112656 0.660487413
0.471080571 4.286707401 0.704126298
0.696986794 4.384805679 0.774073780
1.066864014 4.470332146 0.765676081
2.226561069 4.470332146 0.765676081
4.450119495 4.470332146 0.765676081
0.000000000 0.033131931 0.716869712
0.000000000 0.022843851 0.767854929
0.000000000 0.014565957 0.827068329
0.111117445 0.000000000 0.706517458
0.602832496 0.000000000 0.608103514
1.762529373 0.000000000 0.608103514
3.986088276 0.000000000 0.608103514
0.000000000 0.047049779 0.676260829
0.000000000 0.034116618 0.712649226
0.000000000 0.014619149 0.826672316
0.105974145 0.000002604 0.709416270
0.602832496 0.000000000 0.608103514
1.762529373 0.000000000 0.608103514
3.986088276 0.000000000 0.608103514
0.000000000 0.096589752 0.473397136
0.000000000 0.091934443 0.492534697
0.000000000 0.049316749 0.674645662
0.077370450 0.000112424 0.725224555
0.602481186 0.000000000 0.605759501
1.762178183 0.000000000 0.605759501
3.985736609 0.000000000 0.605759501
0.000000000 0.221553683 0.588627338
0.000000000 0.220633179 0.587297022
0.000000000 0.218098789 0.583250403
0.086053029 0.243936002 0.484539568
0.741182566 0.360405505 0.556411505
1.900879622 0.360405505 0.556411505
4.124438286 0.360405505 0.556411505
0.000000000 0.665349543 0.760103524
0.000000000 0.665349543 0.760103524
0.000000000 0.665349543 0.760103524
0.506544173 0.931709945 0.967195213
1.228327394 1.228328109 1.228325725
2.388024330 1.228328109 1.228325725
4.611582756 1.228328109 1.228325725
0.000000000 1.825046539 0.760103524
0.000000000 1.825046539 0.760103524
0.000000000 1.825046539 0.760103524
0.506544173 2.091406822 0.967195213
1.228327394 2.388025045 1.228325725
2.388024330 2.388025045 1.228325725
4.611582756 2.388025045 1.228325725
0.000000000 4.048604965 0.760103524
0.000000000 4.048604965 0.760103524
0.000000000 4.048604965 0.760103524
0.506544173 4.314965725 0.967195213
1.228327394 4.611583710 1.228325725
2.388024330 4.611583710 1.228325725
4.611582756 4.611583710 1.228325725
0.000000000 0.033131931 1.876566529
0.000000000 0.022843851 1.927551746
0.000000000 0.014565957 1.986765265
0.111117445 0.000000000 1.866214514
0.602832496 0.000000000 1.767800570
1.762529373 0.000000000 1.767800570
3.986088276 0.000000000 1.767800570
0.000000000 0.047049779 1.835957766
0.000000000 0.034116618 1.872346044
0.000000000 0.014619149 1.986369133
0.105974145 0.000002604 1.869113207
0.602832496 0.000000000 1.767800570
1.762529373 0.000000000 1.767800570
3.986088276 0.000000000 1.767800570
0.000000000 0.096589752 1.633094192
0.000000000 0.091934443 1.652231693
0.000000000 0.049316749 1.834342718
0.077370450 0.000112424 1.884921551
0.602481186 0.000000000 1.765456438
1.762178183 0.000000000 1.765456438
3.985736609 0.000000000 1.765456438
0.000000000 0.221553683 1.748324394
0.000000000 0.220633179 1.746994019
0.000000000 0.218098789 1.742947459
0.086053029 0.243936002 1.644236326
0.741182566 0.360405505 1.716108561
1.900879622 0.360405505 1.716108561
4.124438286 0.360405505 1.716108561
0.000000000 0.665349543 1.919800520
0.000000000 0.665349543 1.919800520
0.000000000 0.665349543 1.919800520
0.506544173 0.931709945 2.126892090
1.228327394 1.228328109 2.388022661
2.388024330 1.228328109 2.388022661
4.611582756 1.228328109 2.388022661
0.000000000 1.825046539 1.919800520
0.000000000 1.825046539 1.919800520
0.000000000 1.825046539 1.919800520
0.506544173 2.091406822 2.126892090
1.228327394 2.388025045 2.388022661
2.388024330 2.388025045 2.388022661
4.611582756 2.388025045 2.388022661
0.000000000 4.048604965 1.919800520
0.000000000 4.048604965 1.919800520
0.000000000 4.048604965 1.919800520
0.506544173 4.314965725 2.126892090
1.228327394 4.611583710 2.388022661
2.388024330 4.611583710 2.388022661
4.611582756 4.611583710 2.388022661
0.000000000 0.033131931 4.100125313
0.000000000 0.022843851 4.151110649
0.000000000 0.014565957 4.210323811
0.111117445 0.000000000 4.089773178
0.602832496 0.000000000 3.991358995
1.762529373 0.000000000 3.991358995
3.986088276 0.000000000 3.991358995
0.000000000 0.047049779 4.059516430
0.000000000 0.034116618 4.095904827
0.000000000 0.014619149 4.209928036
0.105974145 0.000002604 4.092672348
0.602832496 0.000000000 3.991358995
1.762529373 0.000000000 3.991358995
3.986088276 0.000000000 3.991358995
0.000000000 0.096589752 3.856652737
0.000000000 0.091934443 3.875790596
0.000000000 0.049316749 4.057901382
0.077370450 0.000112424 4.108479977
0.602481186 0.000000000 3.989014864
1.762178183 0.000000000 3.989014864
3.985736609 0.000000000 3.989014864
0.000000000 0.221553683 3.971882820
0.000000000 0.220633179 3.970552444
0.000000000 0.218098789 3.966506004
0.086053029 0.243936002 3.867795229
0.741182566 0.360405505 3.939666986
1.900879622 0.360405505 3.939666986
4.124438286 0.360405505 3.939666986
0.000000000 0.665349543 4.143359184
0.000000000 0.665349543 4.143359184
0.000000000 0.665349543 4.143359184
0.506544173 0.931709945 4.350450993
1.228327394 1.228328109 4.611581802
2.388024330 1.228328109 4.611581802
4.611582756 1.228328109 4.611581802
0.000000000 1.825046539 4.143359184
0.000000000 1.825046539 4.143359184
0.000000000 1.825046539 4.143359184
0.506544173 2.091406822 4.350450993
1.228327394 2.388025045 4.611581802
2.388024330 2.388025045 4.611581802
4.611582756 2.388025045 4.611581802
0.000000000 4.048604965 4.143359184
0.000000000 4.048604965 4.143359184
0.000000000 4.048604965 4.143359184
0.506544173 4.314965725 4.350450993
1.228327394 4.611583710 4.611581802
2.388024330 4.611583710 4.611581802
4.611582756 4.611583710 4.611581802
