Diseas/Assets/HDRP PostProcessing Profiles/HDRP_Cubes/Movie7LUT.cube
TITLE "27x27x27 Adobe/IRIDAS cube 3D LUT exported with GrossGrade v0.2 (beta) 64 bit"
LUT_3D_SIZE 7
DOMAIN_MIN 0.000000 0.000000 0.000000
DOMAIN_MAX 0.923077 0.923077 0.923077
0.017159641 0.017159216 0.017158378
0.017851394 0.017096331 0.017093353
0.061006546 0.015517578 0.011888832
0.249031007 0.033912156 0.000000000
0.531254888 0.054288499 0.000000000
1.690951824 0.054288499 0.000000000
3.914510489 0.054288499 0.000000000
0.017132817 0.017369881 0.017026454
0.017865401 0.017329453 0.016934719
0.058386248 0.020961033 0.008842384
0.245071739 0.045548324 0.000000000
0.531227827 0.061680675 0.000000000
1.690924764 0.061680675 0.000000000
3.914483309 0.061680675 0.000000000
0.016573893 0.035138216 0.006537727
0.023008613 0.034938339 0.005695469
0.050378293 0.033722736 0.003244256
0.243744925 0.096130960 0.000000000
0.536345065 0.098786667 0.000000000
1.696042061 0.098786667 0.000000000
3.919600725 0.098786667 0.000000000
0.075287558 0.224720836 0.000000000
0.090104036 0.227625206 0.000000000
0.157938093 0.237953395 0.000000000
0.268304497 0.193375185 0.000000000
0.595163226 0.230111048 0.000000000
1.754860163 0.230111048 0.000000000
3.978418827 0.230111048 0.000000000
0.512487888 0.916638970 0.399897128
0.521497488 0.919993281 0.401660711
0.570163131 0.937928617 0.409433395
0.710810602 0.962712109 0.228162587
0.923640430 0.802240193 0.029568486
2.083337307 0.802240193 0.029568486
4.306896210 0.802240193 0.029568486
0.512487888 2.076335907 0.399897128
0.521497488 2.079690218 0.401660711
0.570163131 2.097625732 0.409433395
0.710810602 2.122409105 0.228162587
0.923640430 1.961937189 0.029568486
2.083337307 1.961937189 0.029568486
4.306896210 1.961937189 0.029568486
0.512487888 4.299894333 0.399897128
0.521497488 4.303248882 0.401660711
0.570163131 4.321184158 0.409433395
0.710810602 4.345967770 0.228162587
0.923640430 4.185495853 0.029568486
2.083337307 4.185495853 0.029568486
4.306896210 4.185495853 0.029568486
0.016792489 0.017238762 0.018257316
0.017951692 0.016971821 0.017840452
0.057514768 0.015302002 0.012545722
0.242464513 0.042988982 0.000000000
0.531080604 0.057724927 0.000000000
1.690777540 0.057724927 0.000000000
3.914336205 0.057724927 0.000000000
0.016117370 0.017898502 0.017926406
0.017427694 0.017500646 0.017518144
0.055416841 0.019668678 0.010124159
0.240460798 0.052585881 0.000000000
0.531373203 0.064780407 0.000000000
1.691070080 0.064780407 0.000000000
3.914628744 0.064780407 0.000000000
0.006627633 0.037433982 0.009040765
0.017759459 0.036644872 0.008340272
0.050260462 0.034149326 0.003816809
0.242111206 0.098854467 0.000000000
0.536716402 0.100563645 0.000000000
1.696413279 0.100563645 0.000000000
3.919971943 0.100563645 0.000000000
0.066950858 0.223986477 0.000000000
0.083023131 0.227046907 0.000000000
0.155891299 0.239725947 0.000000000
0.268678933 0.194181204 0.000000000
0.595353961 0.230450585 0.000000000
1.755050898 0.230450585 0.000000000
3.978609562 0.230450585 0.000000000
0.516144454 0.919871449 0.415791333
0.525123656 0.923282981 0.417758018
0.573683560 0.941434681 0.426873505
0.720561683 0.973715663 0.282953471
0.924609423 0.803284645 0.031899549
2.084306240 0.803284645 0.031899549
4.307865143 0.803284645 0.031899549
0.516144454 2.079568386 0.415791333
0.525123656 2.082979918 0.417758018
0.573683560 2.101131678 0.426873505
0.720561683 2.133412361 0.282953471
0.924609423 1.962981462 0.031899549
2.084306240 1.962981462 0.031899549
4.307865143 1.962981462 0.031899549
0.516144454 4.303126812 0.415791333
0.525123656 4.306538582 0.417758018
0.573683560 4.324690342 0.426873505
0.720561683 4.356971264 0.282953471
0.924609423 4.186540604 0.031899549
2.084306240 4.186540604 0.031899549
4.307865143 4.186540604 0.031899549
0.000015206 0.027714828 0.082305245
0.000171648 0.020987622 0.090980016
0.073639303 0.002372666 0.068124346
0.277699500 0.000219172 0.001060596
0.531445384 0.066320196 0.000000000
1.691142321 0.066320196 0.000000000
3.914700985 0.066320196 0.000000000
0.000000000 0.031896535 0.073605269
0.000037306 0.027286008 0.077606916
0.069081053 0.004324427 0.063934639
0.260081917 0.008984462 0.000840834
0.531839728 0.072504409 0.000000000
1.691536665 0.072504409 0.000000000
3.915095329 0.072504409 0.000000000
0.000000000 0.054121215 0.055658448
0.000000000 0.052677002 0.054053925
0.037520159 0.038715057 0.038979106
0.238373458 0.070494540 0.000115134
0.538256168 0.105809197 0.000000000
1.697953105 0.105809197 0.000000000
3.921511650 0.105809197 0.000000000
0.000000000 0.214461192 0.044008885
0.005552497 0.218228236 0.056702118
0.145772964 0.243822873 0.084402792
0.276595801 0.203670681 0.001664902
0.595858574 0.231328711 0.000000000
1.755555511 0.231328711 0.000000000
3.979114294 0.231328711 0.000000000
0.529061913 0.933066249 0.485137224
0.538027108 0.936638296 0.487954527
0.586096227 0.955631375 0.501891613
0.743230045 1.007210135 0.460016131
0.929356039 0.808642209 0.043318518
2.089052916 0.808642209 0.043318518
4.312611580 0.808642209 0.043318518
0.529061913 2.092762947 0.485137224
0.538027108 2.096335173 0.487954527
0.586096227 2.115328312 0.501891613
0.743230045 2.166907072 0.460016131
0.929356039 1.968339205 0.043318518
2.089052916 1.968339205 0.043318518
4.312611580 1.968339205 0.043318518
0.529061913 4.316321850 0.485137224
0.538027108 4.319893837 0.487954527
0.586096227 4.338887215 0.501891613
0.743230045 4.390465736 0.460016131
0.929356039 4.191897869 0.043318518
2.089052916 4.191897869 0.043318518
4.312611580 4.191897869 0.043318518
0.000000000 0.080661982 0.279573321
0.000000000 0.074670568 0.284203053
0.000000000 0.029720828 0.371756315
0.279224068 0.000000000 0.265580118
0.568194032 0.067232735 0.142679527
1.727890968 0.067232735 0.142679527
3.951449633 0.067232735 0.142679527
0.000000000 0.086507887 0.274491191
0.000000000 0.081187695 0.278010368
0.000000000 0.041058462 0.334466547
0.278582484 0.000000000 0.265572488
0.574075699 0.084123008 0.150846958
1.733772635 0.084123008 0.150846958
3.957331181 0.084123008 0.150846958
0.000000000 0.119475529 0.258833498
0.000000000 0.116253838 0.258946240
0.000000000 0.098768108 0.261555314
0.243089944 0.033154029 0.223129198
0.610132992 0.158385053 0.192615762
1.769829988 0.158385053 0.192615762
3.993388653 0.158385053 0.192615762
0.000000000 0.268669128 0.272600830
0.000000000 0.267133117 0.271127522
0.000000000 0.257883012 0.262182862
0.280941278 0.278970689 0.279486537
0.673100948 0.272219181 0.191252142
1.832797885 0.272219181 0.191252142
4.056356430 0.272219181 0.191252142
0.000000000 0.685718358 0.231421977
0.000000000 0.687901318 0.240257978
0.133329183 0.772074461 0.338156670
0.758185983 1.053559065 0.722610593
1.051841974 0.965501308 0.482605815
2.211538792 0.965501308 0.482605815
4.435097694 0.965501308 0.482605815
0.000000000 1.845415354 0.231421977
0.000000000 1.847598314 0.240257978
0.133329183 1.931771398 0.338156670
0.758185983 2.213255882 0.722610593
1.051841974 2.125198364 0.482605815
2.211538792 2.125198364 0.482605815
4.435097694 2.125198364 0.482605815
0.000000000 4.068974018 0.231421977
0.000000000 4.071156979 0.240257978
0.133329183 4.155330181 0.338156670
0.758185983 4.436814308 0.722610593
1.051841974 4.348756790 0.482605815
2.211538792 4.348756790 0.482605815
4.435097694 4.348756790 0.482605815
0.000000000 0.115069486 0.584103107
0.000000000 0.114510410 0.584285021
0.000000000 0.130933091 0.580966234
0.175327048 0.168570817 0.603293061
0.646872282 0.198621482 0.650591493
1.806569219 0.198621482 0.650591493
4.030128002 0.198621482 0.650591493
0.000000000 0.118847959 0.583008409
0.000000000 0.118484437 0.583070397
0.000000000 0.136110231 0.580675602
0.184603959 0.181757703 0.609863162
0.654589057 0.210924044 0.657985330
1.814285994 0.210924044 0.657985330
4.037844658 0.210924044 0.657985330
0.000000000 0.138378188 0.580548227
0.000000000 0.138369292 0.580548763
0.000000000 0.156968743 0.580713391
0.232300371 0.248102993 0.647767067
0.693417549 0.273282170 0.695514202
1.853114486 0.273282170 0.695514202
4.076673031 0.273282170 0.695514202
0.000000000 0.215858474 0.593162656
0.000000000 0.215298921 0.592974663
0.000000000 0.212736860 0.592192411
0.330344260 0.418290913 0.750763416
0.841111362 0.497963309 0.841431618
2.000808239 0.497963309 0.841431618
4.224367142 0.497963309 0.841431618
0.000000000 0.711573899 0.718477726
0.000000000 0.711573899 0.718477726
0.000000000 0.711573899 0.718477726
0.016199246 0.743524790 0.748143911
1.228327751 1.228328109 1.228326917
2.388024807 1.228328109 1.228326917
4.611583233 1.228328109 1.228326917
0.000000000 1.871270895 0.718477726
0.000000000 1.871270895 0.718477726
0.000000000 1.871270895 0.718477726
0.016199246 1.903221726 0.748143911
1.228327751 2.388025045 1.228326917
2.388024807 2.388025045 1.228326917
4.611583233 2.388025045 1.228326917
0.000000000 4.094829559 0.718477726
0.000000000 4.094829559 0.718477726
0.000000000 4.094829559 0.718477726
0.016199246 4.126780510 0.748143911
1.228327751 4.611583710 1.228326917
2.388024807 4.611583710 1.228326917
4.611583233 4.611583710 1.228326917
0.000000000 0.115069486 1.743800044
0.000000000 0.114510410 1.743981957
0.000000000 0.130933091 1.740663171
0.175327048 0.168570817 1.762989998
0.646872282 0.198621482 1.810288429
1.806569219 0.198621482 1.810288429
4.030128002 0.198621482 1.810288429
0.000000000 0.118847959 1.742705345
0.000000000 0.118484437 1.742767334
0.000000000 0.136110231 1.740372539
0.184603959 0.181757703 1.769560099
0.654589057 0.210924044 1.817682266
1.814285994 0.210924044 1.817682266
4.037844658 0.210924044 1.817682266
0.000000000 0.138378188 1.740245104
0.000000000 0.138369292 1.740245700
0.000000000 0.156968743 1.740410328
0.232300371 0.248102993 1.807464004
0.693417549 0.273282170 1.855211139
1.853114486 0.273282170 1.855211139
4.076673031 0.273282170 1.855211139
0.000000000 0.215858474 1.752859592
0.000000000 0.215298921 1.752671599
0.000000000 0.212736860 1.751889348
0.330344260 0.418290913 1.910460353
0.841111362 0.497963309 2.001128674
2.000808239 0.497963309 2.001128674
4.224367142 0.497963309 2.001128674
0.000000000 0.711573899 1.878174663
0.000000000 0.711573899 1.878174663
0.000000000 0.711573899 1.878174663
0.016199246 0.743524790 1.907840848
1.228327751 1.228328109 2.388023853
2.388024807 1.228328109 2.388023853
4.611583233 1.228328109 2.388023853
0.000000000 1.871270895 1.878174663
0.000000000 1.871270895 1.878174663
0.000000000 1.871270895 1.878174663
0.016199246 1.903221726 1.907840848
1.228327751 2.388025045 2.388023853
2.388024807 2.388025045 2.388023853
4.611583233 2.388025045 2.388023853
0.000000000 4.094829559 1.878174663
0.000000000 4.094829559 1.878174663
0.000000000 4.094829559 1.878174663
0.016199246 4.126780510 1.907840848
1.228327751 4.611583710 2.388023853
2.388024807 4.611583710 2.388023853
4.611583233 4.611583710 2.388023853
0.000000000 0.115069486 3.967358589
0.000000000 0.114510410 3.967540741
0.000000000 0.130933091 3.964221954
0.175327048 0.168570817 3.986548662
0.646872282 0.198621482 4.033846855
1.806569219 0.198621482 4.033846855
4.030128002 0.198621482 4.033846855
0.000000000 0.118847959 3.966264009
0.000000000 0.118484437 3.966325998
0.000000000 0.136110231 3.963931084
0.184603959 0.181757703 3.993118763
0.654589057 0.210924044 4.041241169
1.814285994 0.210924044 4.041241169
4.037844658 0.210924044 4.041241169
0.000000000 0.138378188 3.963803768
0.000000000 0.138369292 3.963804245
0.000000000 0.156968743 3.963968992
0.232300371 0.248102993 4.031022549
0.693417549 0.273282170 4.078769684
1.853114486 0.273282170 4.078769684
4.076673031 0.273282170 4.078769684
0.000000000 0.215858474 3.976418257
0.000000000 0.215298921 3.976230383
0.000000000 0.212736860 3.975448132
0.330344260 0.418290913 4.134018898
0.841111362 0.497963309 4.224687099
2.000808239 0.497963309 4.224687099
4.224367142 0.497963309 4.224687099
0.000000000 0.711573899 4.101733208
0.000000000 0.711573899 4.101733208
0.000000000 0.711573899 4.101733208
0.016199246 0.743524790 4.131399632
1.228327751 1.228328109 4.611582756
2.388024807 1.228328109 4.611582756
4.611583233 1.228328109 4.611582756
0.000000000 1.871270895 4.101733208
0.000000000 1.871270895 4.101733208
0.000000000 1.871270895 4.101733208
0.016199246 1.903221726 4.131399632
1.228327751 2.388025045 4.611582756
2.388024807 2.388025045 4.611582756
4.611583233 2.388025045 4.611582756
0.000000000 4.094829559 4.101733208
0.000000000 4.094829559 4.101733208
0.000000000 4.094829559 4.101733208
0.016199246 4.126780510 4.131399632
1.228327751 4.611583710 4.611582756
2.388024807 4.611583710 4.611582756
4.611583233 4.611583710 4.611582756
