Diseas/Assets/HDRP PostProcessing Profiles/HDRP_Cubes/Movie7LUT.cube
TITLE "27x27x27 Adobe/IRIDAS cube 3D LUT exported with GrossGrade v0.2 (beta) 64 bit"
LUT_3D_SIZE 5
DOMAIN_MIN 0.000000 0.000000 0.000000
DOMAIN_MAX 0.923077 0.923077 0.923077
0.017159641 0.017159216 0.017158378
0.026671197 0.016577717 0.016024759
0.249031007 0.033912156 0.000000000
1.010297537 0.054288499 0.000000000
3.914510489 0.054288499 0.000000000
0.016739601 0.020071143 0.015376542
0.025167581 0.020176169 0.013692674
0.242120937 0.064477287 0.000000000
1.011200190 0.074901119 0.000000000
3.915413141 0.074901119 0.000000000
0.075287558 0.224720836 0.000000000
0.115952946 0.232825682 0.000000000
0.268304497 0.193375185 0.000000000
1.074205875 0.230111048 0.000000000
3.978418827 0.230111048 0.000000000
0.512487888 1.395681500 0.399897128
0.538195074 1.405192137 0.404502749
0.710810602 1.441754580 0.228162587
1.402683020 1.281282663 0.029568486
4.306896210 1.281282663 0.029568486
0.512487888 4.299894333 0.399897128
0.538195074 4.309405327 0.404502749
0.710810602 4.345967770 0.228162587
1.402683020 4.185495853 0.029568486
4.306896210 4.185495853 0.029568486
0.010007534 0.019153472 0.030910270
0.027019184 0.014698069 0.025833553
0.239673436 0.043541204 0.000000000
1.010282874 0.061946049 0.000000000
3.914495945 0.061946049 0.000000000
0.004039933 0.026145251 0.026512397
0.021023570 0.021364728 0.021464648
0.237425715 0.066419430 0.000000000
1.011963964 0.080660291 0.000000000
3.916176796 0.080660291 0.000000000
0.053218663 0.222624347 0.016120875
0.107081398 0.233056352 0.017683068
0.269181311 0.196388334 0.000000000
1.074666858 0.230931669 0.000000000
3.978879929 0.230931669 0.000000000
0.521916509 1.404277563 0.442728579
0.547343314 1.414011717 0.448883414
0.732157528 1.467638731 0.359119624
1.405358315 1.284225225 0.036004346
4.309571266 1.284225225 0.036004346
0.521916509 4.308490276 0.442728579
0.547343314 4.318224907 0.448883414
0.732157528 4.371851921 0.359119624
1.405358315 4.188438416 0.036004346
4.309571266 4.188438416 0.036004346
0.000000000 0.080661982 0.279573321
0.000000000 0.061382078 0.298789799
0.279224068 0.000000000 0.265580118
1.047236681 0.067232735 0.142679527
3.951449633 0.067232735 0.142679527
0.000000000 0.097702324 0.267248750
0.000000000 0.084281318 0.273778379
0.272533834 0.000000000 0.259904116
1.065884113 0.113919519 0.167324334
3.970097065 0.113919519 0.167324334
0.000000000 0.268669128 0.272600830
0.000000000 0.264110059 0.268209100
0.280941278 0.278970689 0.279486537
1.152143598 0.272219181 0.191252142
4.056356430 0.272219181 0.191252142
0.000000000 1.164760828 0.231421977
0.000000000 1.177099943 0.259697318
0.758185983 1.532601595 0.722610593
1.530884504 1.444543839 0.482605815
4.435097694 1.444543839 0.482605815
0.000000000 4.068974018 0.231421977
0.000000000 4.081313133 0.259697318
0.758185983 4.436814308 0.722610593
1.530884504 4.348756790 0.482605815
4.435097694 4.348756790 0.482605815
0.000000000 0.115069486 1.063145638
0.000000000 0.116221257 1.062770844
0.175327048 0.168570817 1.082335591
1.125914931 0.198621482 1.129634023
4.030128002 0.198621482 1.129634023
0.000000000 0.125885814 1.060850620
0.000000000 0.128406659 1.060420752
0.201520190 0.205297291 1.101580620
1.147409558 0.232995883 1.150268435
4.051622391 0.232995883 1.150268435
0.000000000 0.215858474 1.072205186
0.000000000 0.214180201 1.071642399
0.330344260 0.418290913 1.229805946
1.320153952 0.497963309 1.320474148
4.224367142 0.497963309 1.320474148
0.000000000 1.190616369 1.197520256
0.000000000 1.190616369 1.197520256
0.016199246 1.222567320 1.227186441
1.707370400 1.707370639 1.707369447
4.611583233 1.707370639 1.707369447
0.000000000 4.094829559 1.197520256
0.000000000 4.094829559 1.197520256
0.016199246 4.126780510 1.227186441
1.707370400 4.611583710 1.707369447
4.611583233 4.611583710 1.707369447
0.000000000 0.115069486 3.967358589
0.000000000 0.116221257 3.966983795
0.175327048 0.168570817 3.986548662
1.125914931 0.198621482 4.033846855
4.030128002 0.198621482 4.033846855
0.000000000 0.125885814 3.965063810
0.000000000 0.128406659 3.964633703
0.201520190 0.205297291 4.005793571
1.147409558 0.232995883 4.054481506
4.051622391 0.232995883 4.054481506
0.000000000 0.215858474 3.976418257
0.000000000 0.214180201 3.975855350
0.330344260 0.418290913 4.134018898
1.320153952 0.497963309 4.224687099
4.224367142 0.497963309 4.224687099
0.000000000 1.190616369 4.101733208
0.000000000 1.190616369 4.101733208
0.016199246 1.222567320 4.131399632
1.707370400 1.707370639 4.611582756
4.611583233 1.707370639 4.611582756
0.000000000 4.094829559 4.101733208
0.000000000 4.094829559 4.101733208
0.016199246 4.126780510 4.131399632
1.707370400 4.611583710 4.611582756
4.611583233 4.611583710 4.611582756
