Diseas/Assets/HDRP PostProcessing Profiles/HDRP_Cubes/Movie7LUT.cube
TITLE "27x27x27 Adobe/IRIDAS cube 3D LUT exported with GrossGrade v0.2 (beta) 64 bit"
DOMAIN_MIN 0 0 0
DOMAIN_MAX 1 1 1
LUT_3D_SIZE 27
0.017159641 0.017159216 0.017158378
0.017159641 0.017159216 0.017158378
0.017159650 0.017159214 0.017158374
0.017286850 0.017147651 0.017146420
0.017851394 0.017096331 0.017093353
0.020656083 0.016915699 0.016775396
0.026671197 0.016577717 0.016024759
0.040522292 0.015978156 0.014313223
0.061006546 0.015517578 0.011888832
0.095455356 0.016483257 0.006600447
0.140508190 0.019615646 0.001160133
0.195601761 0.025866155 0.000000000
0.249031007 0.033912156 0.000000000
0.292861134 0.041192606 0.000000000
0.303137481 0.050134629 0.000000000
0.346326709 0.054288499 0.000000000
0.531254888 0.054288499 0.000000000
0.759009719 0.054288499 0.000000000
1.010297537 0.054288499 0.000000000
1.326398611 0.054288499 0.000000000
1.690951824 0.054288499 0.000000000
2.103961229 0.054288499 0.000000000
2.627864599 0.054288499 0.000000000
3.209042072 0.054288499 0.000000000
3.914510489 0.054288499 0.000000000
4.755390167 0.054288499 0.000000000
5.677519798 0.054288499 0.000000000
0.017159641 0.017159216 0.017158378
0.017159641 0.017159216 0.017158378
0.017159650 0.017159214 0.017158374
0.017286850 0.017147651 0.017146420
0.017851394 0.017096331 0.017093353
0.020656083 0.016915699 0.016775396
0.026671197 0.016577717 0.016024759
0.040522292 0.015978156 0.014313223
0.061006546 0.015517578 0.011888832
0.095455356 0.016483257 0.006600447
0.140508190 0.019615646 0.001160133
0.195601761 0.025866155 0.000000000
0.249031007 0.033912156 0.000000000
0.292861134 0.041192606 0.000000000
0.303137481 0.050134629 0.000000000
0.346326709 0.054288499 0.000000000
0.531254888 0.054288499 0.000000000
0.759009719 0.054288499 0.000000000
1.010297537 0.054288499 0.000000000
1.326398611 0.054288499 0.000000000
1.690951824 0.054288499 0.000000000
2.103961229 0.054288499 0.000000000
2.627864599 0.054288499 0.000000000
3.209042072 0.054288499 0.000000000
3.914510489 0.054288499 0.000000000
4.755390167 0.054288499 0.000000000
5.677519798 0.054288499 0.000000000
0.017159641 0.017159216 0.017158378
0.017159641 0.017159216 0.017158378
0.017196780 0.017153785 0.017157275
0.017334260 0.017153870 0.017134974
0.017863980 0.017142821 0.017059613
0.020703489 0.017010562 0.016701918
0.026715763 0.016806962 0.015855370
0.040383399 0.016438084 0.014019087
0.060569756 0.016185800 0.011519033
0.094802462 0.017529218 0.006144051
0.139626965 0.020989098 0.000892896
0.194750786 0.027361017 0.000000000
0.248442516 0.035290390 0.000000000
0.292617261 0.042383164 0.000000000
0.303085089 0.051167566 0.000000000
0.346283108 0.055148102 0.000000000
0.531211257 0.055148102 0.000000000
0.758966088 0.055148102 0.000000000
1.010253906 0.055148102 0.000000000
1.326354980 0.055148102 0.000000000
1.690908194 0.055148102 0.000000000
2.103917599 0.055148102 0.000000000
2.627820969 0.055148102 0.000000000
3.208998442 0.055148102 0.000000000
3.914466858 0.055148102 0.000000000
4.755346298 0.055148102 0.000000000
5.677475929 0.055148102 0.000000000
0.017154722 0.017197948 0.017134117
0.017154722 0.017197948 0.017134117
0.017219398 0.017187111 0.017130809
0.017432531 0.017184971 0.017099353
0.017897282 0.017237073 0.016990600
0.020779802 0.017274749 0.016506299
0.026819078 0.017382234 0.015429701
0.040051937 0.017684173 0.013210138
0.059465051 0.018158730 0.010393810
0.093007758 0.020506158 0.004840960
0.136999547 0.024916675 0.000587137
0.192243785 0.031704795 0.000000000
0.246825039 0.039506312 0.000000000
0.291864902 0.046077661 0.000000000
0.302927494 0.054274052 0.000000000
0.346152276 0.057727017 0.000000000
0.531080484 0.057727017 0.000000000
0.758835316 0.057727017 0.000000000
1.010123134 0.057727017 0.000000000
1.326224208 0.057727017 0.000000000
1.690777421 0.057727017 0.000000000
2.103786707 0.057727017 0.000000000
2.627690077 0.057727017 0.000000000
3.208867550 0.057727017 0.000000000
3.914335966 0.057727017 0.000000000
4.755215645 0.057727017 0.000000000
5.677345276 0.057727017 0.000000000
0.017132817 0.017369881 0.017026454
0.017132817 0.017369881 0.017026454
0.017218497 0.017354291 0.017021842
0.017477756 0.017325087 0.016999103
0.017865401 0.017329453 0.016934719
0.020695454 0.017597383 0.016296083
0.026705420 0.018214203 0.014852275
0.039533503 0.019459255 0.012096319
0.058386248 0.020961033 0.008842384
0.090658486 0.024644731 0.003617338
0.133905634 0.030281071 0.000272742
0.189681157 0.037868325 0.000000000
0.245071739 0.045548324 0.000000000
0.291432440 0.051637072 0.000000000
0.302762598 0.058757719 0.000000000
0.346299618 0.061680675 0.000000000
0.531227827 0.061680675 0.000000000
0.758982658 0.061680675 0.000000000
1.010270476 0.061680675 0.000000000
1.326371551 0.061680675 0.000000000
1.690924764 0.061680675 0.000000000
2.103934050 0.061680675 0.000000000
2.627837420 0.061680675 0.000000000
3.209014893 0.061680675 0.000000000
3.914483309 0.061680675 0.000000000
4.755362988 0.061680675 0.000000000
5.677492619 0.061680675 0.000000000
0.016989646 0.018130751 0.016586460
0.016989646 0.018130751 0.016586460
0.017151244 0.018108195 0.016572678
0.017610291 0.018057596 0.016523032
0.018243924 0.018037492 0.016422873
0.020617217 0.018215094 0.015899200
0.025925329 0.018965399 0.014441388
0.038521912 0.021217290 0.010993761
0.056584284 0.024484171 0.007038813
0.088517137 0.030155260 0.001985301
0.130788237 0.037389945 0.000108209
0.186937407 0.046228170 0.000000000
0.243308380 0.054040164 0.000000000
0.290860713 0.059476219 0.000000000
0.303082734 0.065583266 0.000000000
0.346571028 0.067466967 0.000000000
0.531499207 0.067466967 0.000000000
0.759254038 0.067466967 0.000000000
1.010541916 0.067466967 0.000000000
1.326642990 0.067466967 0.000000000
1.691196203 0.067466967 0.000000000
2.104205608 0.067466967 0.000000000
2.628108978 0.067466967 0.000000000
3.209286451 0.067466967 0.000000000
3.914754868 0.067466967 0.000000000
4.755634308 0.067466967 0.000000000
5.677763939 0.067466967 0.000000000
0.016739601 0.020071143 0.015376542
0.016739601 0.020071143 0.015376542
0.017082943 0.020043297 0.015332084
0.017949983 0.019974260 0.015214418
0.019114086 0.019934017 0.015007751
0.021231018 0.019895330 0.014626812
0.025167581 0.020176169 0.013692674
0.036890883 0.022927739 0.010085264
0.054494455 0.027848342 0.005405216
0.086216286 0.036108144 0.000772156
0.128297344 0.045961309 0.000043774
0.184857041 0.056426797 0.000000000
0.242120937 0.064477287 0.000000000
0.291072041 0.069412284 0.000000000
0.303728461 0.074139357 0.000000000
0.347229421 0.074901119 0.000000000
0.532157600 0.074901119 0.000000000
0.759912431 0.074901119 0.000000000
1.011200190 0.074901119 0.000000000
1.327301264 0.074901119 0.000000000
1.691854477 0.074901119 0.000000000
2.104863882 0.074901119 0.000000000
2.628767252 0.074901119 0.000000000
3.209944725 0.074901119 0.000000000
3.915413141 0.074901119 0.000000000
4.756292820 0.074901119 0.000000000
5.678422451 0.074901119 0.000000000
0.016516091 0.025555748 0.011629389
0.016516091 0.025555748 0.011629389
0.017142354 0.025520826 0.011539318
0.018785631 0.025427913 0.011296635
0.020936860 0.025337884 0.010936384
0.023874795 0.025224850 0.010460934
0.028153373 0.025075871 0.009951870
0.036240034 0.025913496 0.008419364
0.052241765 0.030400950 0.004438609
0.083044522 0.041002490 0.000438892
0.125981599 0.055390373 0.000017479
0.183810189 0.069622763 0.000000000
0.242031381 0.078491665 0.000000000
0.292420924 0.082994483 0.000000000
0.305369973 0.086119905 0.000000000
0.348607153 0.085290745 0.000000000
0.533535361 0.085290745 0.000000000
0.761290193 0.085290745 0.000000000
1.012578011 0.085290745 0.000000000
1.328679085 0.085290745 0.000000000
1.693232298 0.085290745 0.000000000
2.106241703 0.085290745 0.000000000
2.630145073 0.085290745 0.000000000
3.211322546 0.085290745 0.000000000
3.916790962 0.085290745 0.000000000
4.757670403 0.085290745 0.000000000
5.679800034 0.085290745 0.000000000
0.016573893 0.035138216 0.006537727
0.016573893 0.035138216 0.006537727
0.017362226 0.035116311 0.006443333
0.019665165 0.035053473 0.006155095
0.023008613 0.034938339 0.005695469
0.027541099 0.034707736 0.005043896
0.032883041 0.034314368 0.004470100
0.040057760 0.033804316 0.003989760
0.050378293 0.033722736 0.003244256
0.080122970 0.045410637 0.000191599
0.122933559 0.062767893 0.000000551
0.183570415 0.084344685 0.000000000
0.243744925 0.096130960 0.000000000
0.295801163 0.100327171 0.000000000
0.308648676 0.101482749 0.000000000
0.351416886 0.098786667 0.000000000
0.536345065 0.098786667 0.000000000
0.764099896 0.098786667 0.000000000
1.015387774 0.098786667 0.000000000
1.331488848 0.098786667 0.000000000
1.696042061 0.098786667 0.000000000
2.109051466 0.098786667 0.000000000
2.632954836 0.098786667 0.000000000
3.214132309 0.098786667 0.000000000
3.919600725 0.098786667 0.000000000
4.760479927 0.098786667 0.000000000
5.682609558 0.098786667 0.000000000
0.020015698 0.055385560 0.000517321
0.020015698 0.055385560 0.000517321
0.021142283 0.055392150 0.000494945
0.024355538 0.055423632 0.000432793
0.028901646 0.055516299 0.000338509
0.034853496 0.055398811 0.000281718
0.042018905 0.055057809 0.000198126
0.050591666 0.054131359 0.000138725
0.059931379 0.052473940 0.000113291
0.078539714 0.053594243 0.000058615
0.119846798 0.070933521 0.000000000
0.181154490 0.096011385 0.000000000
0.246364266 0.116669521 0.000000000
0.303785473 0.125796914 0.000000000
0.315930575 0.124517344 0.000000000
0.357267380 0.118817806 0.000000000
0.542195559 0.118817806 0.000000000
0.769950390 0.118817806 0.000000000
1.021238208 0.118817806 0.000000000
1.337339282 0.118817806 0.000000000
1.701892495 0.118817806 0.000000000
2.114902020 0.118817806 0.000000000
2.638805389 0.118817806 0.000000000
3.219982624 0.118817806 0.000000000
3.925451279 0.118817806 0.000000000
4.766330719 0.118817806 0.000000000
5.688460350 0.118817806 0.000000000
0.026166258 0.088879414 0.000009885
0.026166258 0.088879414 0.000009885
0.027536785 0.088969469 0.000009885
0.031533305 0.089249149 0.000008736
0.037230909 0.089627586 0.000006789
0.045053959 0.090103693 0.000004022
0.054535627 0.090311855 0.000002248
0.066194102 0.089558452 0.000000653
0.079261184 0.088366546 0.000000000
0.094324663 0.084202796 0.000000000
0.120920219 0.085575759 0.000000000
0.179473668 0.108857244 0.000000000
0.247701243 0.133631557 0.000000000
0.313576967 0.153337628 0.000000000
0.327875108 0.154635206 0.000000000
0.367430806 0.145420283 0.000000000
0.552358985 0.145420283 0.000000000
0.780113816 0.145420283 0.000000000
1.031401634 0.145420283 0.000000000
1.347502708 0.145420283 0.000000000
1.712055922 0.145420283 0.000000000
2.125065327 0.145420283 0.000000000
2.648968697 0.145420283 0.000000000
3.230146170 0.145420283 0.000000000
3.935614586 0.145420283 0.000000000
4.776494026 0.145420283 0.000000000
5.698623657 0.145420283 0.000000000
0.041786194 0.145429477 0.000000000
0.041786194 0.145429477 0.000000000
0.043368760 0.145654246 0.000000000
0.048323747 0.146416977 0.000000000
0.055299673 0.147370189 0.000000000
0.065506972 0.148875654 0.000000000
0.077944472 0.150309846 0.000000000
0.093510583 0.150685728 0.000000000
0.111490540 0.150039643 0.000000000
0.133667663 0.147621572 0.000000000
0.153282076 0.138944760 0.000000000
0.184767306 0.132884294 0.000000000
0.251180828 0.154601410 0.000000000
0.322895408 0.178984001 0.000000000
0.346556485 0.193182617 0.000000000
0.385011941 0.183576480 0.000000000
0.569940090 0.183576480 0.000000000
0.797694921 0.183576480 0.000000000
1.048982739 0.183576480 0.000000000
1.365083814 0.183576480 0.000000000
1.729637027 0.183576480 0.000000000
2.142646551 0.183576480 0.000000000
2.666549921 0.183576480 0.000000000
3.247727394 0.183576480 0.000000000
3.953195810 0.183576480 0.000000000
4.794075012 0.183576480 0.000000000
5.716204643 0.183576480 0.000000000
0.075287558 0.224720836 0.000000000
0.075287558 0.224720836 0.000000000
0.076947726 0.225018665 0.000000000
0.082095399 0.225964382 0.000000000
0.090104036 0.227625206 0.000000000
0.101505883 0.229916513 0.000000000
0.115952946 0.232825682 0.000000000
0.135380551 0.236177787 0.000000000
0.157938093 0.237953395 0.000000000
0.186507761 0.237868294 0.000000000
0.218835741 0.235754877 0.000000000
0.241814584 0.217203230 0.000000000
0.268304497 0.193375185 0.000000000
0.339445174 0.213952899 0.000000000
0.366867453 0.230168596 0.000000000
0.410235047 0.230111048 0.000000000
0.595163226 0.230111048 0.000000000
0.822918057 0.230111048 0.000000000
1.074205875 0.230111048 0.000000000
1.390306950 0.230111048 0.000000000
1.754860163 0.230111048 0.000000000
2.167869568 0.230111048 0.000000000
2.691772938 0.230111048 0.000000000
3.272950411 0.230111048 0.000000000
3.978418827 0.230111048 0.000000000
4.819298267 0.230111048 0.000000000
5.741427898 0.230111048 0.000000000
0.159993619 0.337000132 0.018019216
0.159993619 0.337000132 0.018019216
0.161656305 0.337436527 0.018096168
0.167069286 0.338885337 0.018294819
0.174748883 0.340870589 0.018516833
0.187078580 0.344132215 0.018950701
0.201926112 0.347916096 0.019350592
0.223053068 0.353251427 0.019825365
0.249494001 0.359523565 0.019623544
0.271429271 0.359563649 0.001624844
0.304104567 0.360238314 0.000000000
0.349690109 0.359087497 0.000000000
0.372660607 0.324749649 0.000000000
0.382943273 0.278074712 0.000000000
0.395784795 0.277951419 0.000000000
0.436856419 0.274108469 0.000000000
0.621784568 0.274108469 0.000000000
0.849539399 0.274108469 0.000000000
1.100827217 0.274108469 0.000000000
1.416928291 0.274108469 0.000000000
1.781481504 0.274108469 0.000000000
2.194490910 0.274108469 0.000000000
2.718394279 0.274108469 0.000000000
3.299571753 0.274108469 0.000000000
4.005040169 0.274108469 0.000000000
4.845919609 0.274108469 0.000000000
5.768049240 0.274108469 0.000000000
0.341676831 0.525777459 0.211279035
0.341676831 0.525777459 0.211279035
0.343100935 0.526243508 0.211518615
0.347374648 0.527591825 0.212220982
0.353308767 0.529285431 0.213116378
0.362679094 0.532074094 0.214527324
0.375719905 0.536309183 0.216679275
0.392993718 0.541262984 0.219056636
0.416878134 0.548940301 0.222647235
0.449246675 0.557905674 0.221537918
0.477132797 0.558586895 0.182637274
0.508932173 0.552878737 0.095710143
0.543850183 0.541772962 0.001234262
0.525601447 0.484230071 0.000000000
0.452727944 0.371126175 0.000000000
0.478709638 0.342938006 0.000000000
0.663637817 0.342938006 0.000000000
0.891392648 0.342938006 0.000000000
1.142680407 0.342938006 0.000000000
1.458781481 0.342938006 0.000000000
1.823334694 0.342938006 0.000000000
2.236344099 0.342938006 0.000000000
2.760247469 0.342938006 0.000000000
3.341424942 0.342938006 0.000000000
4.046893597 0.342938006 0.000000000
4.887773037 0.342938006 0.000000000
5.809902668 0.342938006 0.000000000
0.512487888 0.731710792 0.399897128
0.512487888 0.731710792 0.399897128
0.513552308 0.732109487 0.400130153
0.516782224 0.733318150 0.400809348
0.521497488 0.735065103 0.401660711
0.528741241 0.737741530 0.402916610
0.538195074 0.741221488 0.404502749
0.551916480 0.746234059 0.406626850
0.570163131 0.753000438 0.409433395
0.597525477 0.762947619 0.412405401
0.629857898 0.773324907 0.404540807
0.665272474 0.779475689 0.356916428
0.710810602 0.777783930 0.228162587
0.684949994 0.732243359 0.009416731
0.631810427 0.638124526 0.000000000
0.603748381 0.519017875 0.014007209
0.788676560 0.519017875 0.014007209
1.016431332 0.519017875 0.014007209
1.267719269 0.519017875 0.014007209
1.583820343 0.519017875 0.014007209
1.948373556 0.519017875 0.014007209
2.361382961 0.519017875 0.014007209
2.885286331 0.519017875 0.014007209
3.466463804 0.519017875 0.014007209
4.171932220 0.519017875 0.014007209
5.012811661 0.519017875 0.014007209
5.934941292 0.519017875 0.014007209
0.512487888 0.916638970 0.399897128
0.512487888 0.916638970 0.399897128
0.513552308 0.917037666 0.400130153
0.516782224 0.918246329 0.400809348
0.521497488 0.919993281 0.401660711
0.528741241 0.922669709 0.402916610
0.538195074 0.926149666 0.404502749
0.551916480 0.931162238 0.406626850
0.570163131 0.937928617 0.409433395
0.597525477 0.947875798 0.412405401
0.629857898 0.958253086 0.404540807
0.665272474 0.964403868 0.356916428
0.710810602 0.962712109 0.228162587
0.684949994 0.917171538 0.009416731
0.675710857 0.856801271 0.000000000
0.738712251 0.802240193 0.029568486
0.923640430 0.802240193 0.029568486
1.151395321 0.802240193 0.029568486
1.402683020 0.802240193 0.029568486
1.718784094 0.802240193 0.029568486
2.083337307 0.802240193 0.029568486
2.496346712 0.802240193 0.029568486
3.020250082 0.802240193 0.029568486
3.601427555 0.802240193 0.029568486
4.306896210 0.802240193 0.029568486
5.147775650 0.802240193 0.029568486
6.069905281 0.802240193 0.029568486
0.512487888 1.144393802 0.399897128
0.512487888 1.144393802 0.399897128
0.513552308 1.144792557 0.400130153
0.516782224 1.146001101 0.400809348
0.521497488 1.147748113 0.401660711
0.528741241 1.150424480 0.402916610
0.538195074 1.153904438 0.404502749
0.551916480 1.158917069 0.406626850
0.570163131 1.165683508 0.409433395
0.597525477 1.175630569 0.412405401
0.629857898 1.186007977 0.404540807
0.665272474 1.192158699 0.356916428
0.710810602 1.190466881 0.228162587
0.684949994 1.144926310 0.009416731
0.675710857 1.084556103 0.000000000
0.738712251 1.029994965 0.029568486
0.923640430 1.029994965 0.029568486
1.151395321 1.029994965 0.029568486
1.402683020 1.029994965 0.029568486
1.718784094 1.029994965 0.029568486
2.083337307 1.029994965 0.029568486
2.496346712 1.029994965 0.029568486
3.020250082 1.029994965 0.029568486
3.601427555 1.029994965 0.029568486
4.306896210 1.029994965 0.029568486
5.147775650 1.029994965 0.029568486
6.069905281 1.029994965 0.029568486
0.512487888 1.395681500 0.399897128
0.512487888 1.395681500 0.399897128
0.513552308 1.396080256 0.400130153
0.516782224 1.397288799 0.400809348
0.521497488 1.399035811 0.401660711
0.528741241 1.401712179 0.402916610
0.538195074 1.405192137 0.404502749
0.551916480 1.410204768 0.406626850
0.570163131 1.416971207 0.409433395
0.597525477 1.426918268 0.412405401
0.629857898 1.437295675 0.404540807
0.665272474 1.443446398 0.356916428
0.710810602 1.441754580 0.228162587
0.684949994 1.396214008 0.009416731
0.675710857 1.335843801 0.000000000
0.738712251 1.281282663 0.029568486
0.923640430 1.281282663 0.029568486
1.151395321 1.281282663 0.029568486
1.402683020 1.281282663 0.029568486
1.718784094 1.281282663 0.029568486
2.083337307 1.281282663 0.029568486
2.496346712 1.281282663 0.029568486
3.020250082 1.281282663 0.029568486
3.601427555 1.281282663 0.029568486
4.306896210 1.281282663 0.029568486
5.147775650 1.281282663 0.029568486
6.069905281 1.281282663 0.029568486
0.512487888 1.711782694 0.399897128
0.512487888 1.711782694 0.399897128
0.513552308 1.712181568 0.400130153
0.516782224 1.713389874 0.400809348
0.521497488 1.715137005 0.401660711
0.528741241 1.717813492 0.402916610
0.538195074 1.721293449 0.404502749
0.551916480 1.726306081 0.406626850
0.570163131 1.733072519 0.409433395
0.597525477 1.743019581 0.412405401
0.629857898 1.753396749 0.404540807
0.665272474 1.759547591 0.356916428
0.710810602 1.757855654 0.228162587
0.684949994 1.712315083 0.009416731
0.675710857 1.651944876 0.000000000
0.738712251 1.597383976 0.029568486
0.923640430 1.597383976 0.029568486
1.151395321 1.597383976 0.029568486
1.402683020 1.597383976 0.029568486
1.718784094 1.597383976 0.029568486
2.083337307 1.597383976 0.029568486
2.496346712 1.597383976 0.029568486
3.020250082 1.597383976 0.029568486
3.601427555 1.597383976 0.029568486
4.306896210 1.597383976 0.029568486
5.147775650 1.597383976 0.029568486
6.069905281 1.597383976 0.029568486
0.512487888 2.076335907 0.399897128
0.512487888 2.076335907 0.399897128
0.513552308 2.076734543 0.400130153
0.516782224 2.077943087 0.400809348
0.521497488 2.079690218 0.401660711
0.528741241 2.082366705 0.402916610
0.538195074 2.085846424 0.404502749
0.551916480 2.090859413 0.406626850
0.570163131 2.097625732 0.409433395
0.597525477 2.107572794 0.412405401
0.629857898 2.117950201 0.404540807
0.665272474 2.124100685 0.356916428
0.710810602 2.122409105 0.228162587
0.684949994 2.076868534 0.009416731
0.675710857 2.016498089 0.000000000
0.738712251 1.961937189 0.029568486
0.923640430 1.961937189 0.029568486
1.151395321 1.961937189 0.029568486
1.402683020 1.961937189 0.029568486
1.718784094 1.961937189 0.029568486
2.083337307 1.961937189 0.029568486
2.496346712 1.961937189 0.029568486
3.020250082 1.961937189 0.029568486
3.601427555 1.961937189 0.029568486
4.306896210 1.961937189 0.029568486
5.147775650 1.961937189 0.029568486
6.069905281 1.961937189 0.029568486
0.512487888 2.489345312 0.399897128
0.512487888 2.489345312 0.399897128
0.513552308 2.489744186 0.400130153
0.516782224 2.490952492 0.400809348
0.521497488 2.492699623 0.401660711
0.528741241 2.495376110 0.402916610
0.538195074 2.498856068 0.404502749
0.551916480 2.503868580 0.406626850
0.570163131 2.510635138 0.409433395
0.597525477 2.520582199 0.412405401
0.629857898 2.530959368 0.404540807
0.665272474 2.537110329 0.356916428
0.710810602 2.535418272 0.228162587
0.684949994 2.489877701 0.009416731
0.675710857 2.429507494 0.000000000
0.738712251 2.374946594 0.029568486
0.923640430 2.374946594 0.029568486
1.151395321 2.374946594 0.029568486
1.402683020 2.374946594 0.029568486
1.718784094 2.374946594 0.029568486
2.083337307 2.374946594 0.029568486
2.496346712 2.374946594 0.029568486
3.020250082 2.374946594 0.029568486
3.601427555 2.374946594 0.029568486
4.306896210 2.374946594 0.029568486
5.147775650 2.374946594 0.029568486
6.069905281 2.374946594 0.029568486
0.512487888 3.013248682 0.399897128
0.512487888 3.013248682 0.399897128
0.513552308 3.013647556 0.400130153
0.516782224 3.014855862 0.400809348
0.521497488 3.016602993 0.401660711
0.528741241 3.019279480 0.402916610
0.538195074 3.022759438 0.404502749
0.551916480 3.027771950 0.406626850
0.570163131 3.034538507 0.409433395
0.597525477 3.044485569 0.412405401
0.629857898 3.054862738 0.404540807
0.665272474 3.061013699 0.356916428
0.710810602 3.059321642 0.228162587
0.684949994 3.013781071 0.009416731
0.675710857 2.953410864 0.000000000
0.738712251 2.898849964 0.029568486
0.923640430 2.898849964 0.029568486
1.151395321 2.898849964 0.029568486
1.402683020 2.898849964 0.029568486
1.718784094 2.898849964 0.029568486
2.083337307 2.898849964 0.029568486
2.496346712 2.898849964 0.029568486
3.020250082 2.898849964 0.029568486
3.601427555 2.898849964 0.029568486
4.306896210 2.898849964 0.029568486
5.147775650 2.898849964 0.029568486
6.069905281 2.898849964 0.029568486
0.512487888 3.594426155 0.399897128
0.512487888 3.594426155 0.399897128
0.513552308 3.594824791 0.400130153
0.516782224 3.596033335 0.400809348
0.521497488 3.597780466 0.401660711
0.528741241 3.600456953 0.402916610
0.538195074 3.603936672 0.404502749
0.551916480 3.608949661 0.406626850
0.570163131 3.615715981 0.409433395
0.597525477 3.625663042 0.412405401
0.629857898 3.636040449 0.404540807
0.665272474 3.642190933 0.356916428
0.710810602 3.640499353 0.228162587
0.684949994 3.594958782 0.009416731
0.675710857 3.534588337 0.000000000
0.738712251 3.480027437 0.029568486
0.923640430 3.480027437 0.029568486
1.151395321 3.480027437 0.029568486
1.402683020 3.480027437 0.029568486
1.718784094 3.480027437 0.029568486
2.083337307 3.480027437 0.029568486
2.496346712 3.480027437 0.029568486
3.020250082 3.480027437 0.029568486
3.601427555 3.480027437 0.029568486
4.306896210 3.480027437 0.029568486
5.147775650 3.480027437 0.029568486
6.069905281 3.480027437 0.029568486
0.512487888 4.299894333 0.399897128
0.512487888 4.299894333 0.399897128
0.513552308 4.300293446 0.400130153
0.516782224 4.301501751 0.400809348
0.521497488 4.303248882 0.401660711
0.528741241 4.305925369 0.402916610
0.538195074 4.309405327 0.404502749
0.551916480 4.314417839 0.406626850
0.570163131 4.321184158 0.409433395
0.597525477 4.331131458 0.412405401
0.629857898 4.341508389 0.404540807
0.665272474 4.347659588 0.356916428
0.710810602 4.345967770 0.228162587
0.684949994 4.300426960 0.009416731
