Diseas/Assets/HDRP PostProcessing Profiles/HDRP_Cubes/Paradise_cube.cube
TITLE "27x27x27 Adobe/IRIDAS cube 3D LUT exported with GrossGrade v0.2 (beta) 64 bit"
LUT_3D_SIZE 5
DOMAIN_MIN 0.000000 0.000000 0.000000
DOMAIN_MAX 0.923077 0.923077 0.923077
0.002410590 0.002410591 0.002410591
0.145545632 -0.005976190 -0.005871283
0.497970551 -0.024062276 -0.017896198
1.424285650 0.013189996 -0.050349075
4.328498840 0.013189996 -0.050349075
-0.013701382 0.121233486 -0.012355415
0.112295136 0.116763823 -0.020403519
0.489812583 0.100321822 -0.041155733
1.506989598 0.096211724 -0.075063422
4.411202431 0.096211724 -0.075063422
-0.054775920 0.484274507 -0.047305118
0.062896840 0.483619392 -0.059999797
0.470378876 0.473243713 -0.083611593
1.567913651 0.445432067 -0.117490277
4.472126961 0.445432067 -0.117490277
-0.112035938 1.573055744 -0.111021295
-0.004514145 1.576575518 -0.124001384
0.431972951 1.564597368 -0.146300808
1.553854227 1.511409998 0.002960228
4.458066940 1.511409998 0.002960228
-0.112035938 4.477268219 -0.111021295
-0.004514145 4.480788708 -0.124001384
0.431972951 4.468810081 -0.146300808
1.553854227 4.415623188 0.002960228
4.458066940 4.415623188 0.002960228
0.000797603 0.005797663 0.189517081
0.146159515 -0.006101297 0.161223248
0.520125210 -0.024222210 0.144966096
1.465054393 0.004455490 0.118235216
4.369267464 0.004455490 0.118235216
-0.017568447 0.126007646 0.139076740
0.124078907 0.121707141 0.133942008
0.512037456 0.103040583 0.118029796
1.552220345 0.087532796 0.083473481
4.456433296 0.087532796 0.083473481
-0.060187660 0.502735257 0.102636248
0.069689602 0.496074766 0.084928766
0.489373326 0.484807134 0.060332563
1.587160707 0.457748026 0.023202477
4.491373539 0.457748026 0.023202477
-0.095750406 1.601153493 0.058195323
-0.002594895 1.589107275 0.016682029
0.449455887 1.578526378 -0.012887162
1.570035219 1.548847079 0.015024090
4.474248409 1.548847079 0.015024090
-0.095750406 4.505366325 0.058195323
-0.002594895 4.493320465 0.016682029
0.449455887 4.482739449 -0.012887162
1.570035219 4.453060150 0.015024090
4.474248409 4.453060150 0.015024090
-0.001560003 0.019422557 0.612259269
0.151977658 0.000935681 0.604600728
0.543167293 -0.024019491 0.590541065
1.512738109 -0.030865312 0.532149076
4.416951180 -0.030865312 0.532149076
-0.019019283 0.146621972 0.588119984
0.136072636 0.140175804 0.589398026
0.542301238 0.118864574 0.582945943
1.608353615 0.067340672 0.536918342
4.512566566 0.067340672 0.536918342
-0.071541123 0.524566054 0.573320091
0.088628188 0.526635766 0.574665666
0.525748491 0.516474068 0.564088702
1.626628876 0.490238100 0.537719548
4.530841827 0.490238100 0.537719548
-0.047919236 1.583738923 0.553346038
0.040355254 1.636032939 0.560343325
0.489037037 1.612550855 0.529706061
1.611167312 1.598706007 0.511684418
4.515379906 1.598706007 0.511684418
-0.047919236 4.487951756 0.553346038
0.040355254 4.540246487 0.560343325
0.489037037 4.516764164 0.529706061
1.611167312 4.502918720 0.511684418
4.515379906 4.502918720 0.511684418
0.001217248 0.055475593 1.531837583
0.162763566 0.028508497 1.572310448
0.566310942 -0.015736282 1.662336469
1.588722944 -0.047376778 1.645591140
4.492936134 -0.047376778 1.645591140
-0.016876042 0.174880669 1.623160124
0.148427099 0.159207821 1.667154789
0.567418635 0.138371870 1.673681259
1.608058095 0.109293506 1.659824252
4.512270927 0.109293506 1.659824252
-0.067702077 0.558563113 1.700396180
0.110086679 0.558616221 1.700750947
0.555130005 0.546058953 1.697947383
1.636348963 0.527141750 1.687585235
4.540561676 0.527141750 1.687585235
0.005341119 1.568863273 1.704032063
0.066260010 1.635670900 1.704982042
0.529532135 1.636871219 1.703848481
1.644013166 1.630901098 1.698361754
4.548226357 1.630901098 1.698361754
0.005341119 4.473076344 1.704032063
0.066260010 4.539884090 1.704982042
0.529532135 4.541084290 1.703848481
1.644013166 4.535114288 1.698361754
4.548226357 4.535114288 1.698361754
0.001217248 0.055475593 4.436050892
0.162763566 0.028508497 4.476523399
0.566310942 -0.015736282 4.566549301
1.588722944 -0.047376778 4.549804211
4.492936134 -0.047376778 4.549804211
-0.016876042 0.174880669 4.527373314
0.148427099 0.159207821 4.571367741
0.567418635 0.138371870 4.577894211
1.608058095 0.109293506 4.564037323
4.512270927 0.109293506 4.564037323
-0.067702077 0.558563113 4.604609489
0.110086679 0.558616221 4.604964256
0.555130005 0.546058953 4.602160454
1.636348963 0.527141750 4.591798306
4.540561676 0.527141750 4.591798306
0.005341119 1.568863273 4.608244896
0.066260010 1.635670900 4.609195232
0.529532135 1.636871219 4.608061790
1.644013166 1.630901098 4.602574825
4.548226357 1.630901098 4.602574825
0.005341119 4.473076344 4.608244896
0.066260010 4.539884090 4.609195232
0.529532135 4.541084290 4.608061790
1.644013166 4.535114288 4.602574825
4.548226357 4.535114288 4.602574825
