Diseas/Assets/HDRP PostProcessing Profiles/HDRP_Cubes/Paradise_cube.cube
TITLE "27x27x27 Adobe/IRIDAS cube 3D LUT exported with GrossGrade v0.2 (beta) 64 bit"
LUT_3D_SIZE 7
DOMAIN_MIN 0.000000 0.000000 0.000000
DOMAIN_MAX 0.923077 0.923077 0.923077
0.002410590 0.002410591 0.002410591
0.079008169 -0.002305419 -0.003282037
0.226451740 -0.009962260 -0.009247467
0.497970551 -0.024062276 -0.017896198
0.983982861 -0.007207793 -0.046938363
2.104939938 0.013189996 -0.050349075
4.328498840 0.013189996 -0.050349075
-0.006676231 0.059970345 -0.006612753
0.055051316 0.056572169 -0.009924233
0.209915891 0.049439687 -0.017673541
0.492899776 0.033349071 -0.030686952
1.016015291 0.033501398 -0.059554305
2.143472910 0.050476369 -0.062392674
4.367032051 0.050476369 -0.062392674
-0.022665272 0.200407714 -0.019699154
0.029209320 0.199590176 -0.024711685
0.189683557 0.194905937 -0.034192618
0.485970169 0.184340045 -0.050759405
1.086590052 0.152249292 -0.083096147
2.242909908 0.154342473 -0.084878907
4.466468334 0.154342473 -0.084878907
-0.054775920 0.484274507 -0.047305118
-0.009842038 0.484569758 -0.052011181
0.156883165 0.481490463 -0.065739624
0.470378876 0.473243713 -0.083611593
1.088870883 0.445432067 -0.117490277
2.248568058 0.445432067 -0.117490277
4.472126961 0.445432067 -0.117490277
-0.112035938 1.094013214 -0.111021295
-0.078918613 1.098562598 -0.115010798
0.096047580 1.095374465 -0.130967125
0.431972951 1.085554838 -0.146300808
1.074811459 1.032367468 0.002960228
2.234508514 1.032367468 0.002960228
4.458066940 1.032367468 0.002960228
-0.112035938 2.253710270 -0.111021295
-0.078918613 2.258259773 -0.115010798
0.096047580 2.255071640 -0.130967125
0.431972951 2.245251656 -0.146300808
1.074811459 2.192064047 0.002960228
2.234508514 2.192064047 0.002960228
4.458066940 2.192064047 0.002960228
-0.112035938 4.477268219 -0.111021295
-0.078918613 4.481818199 -0.115010798
0.096047580 4.478630543 -0.130967125
0.431972951 4.468810081 -0.146300808
1.074811459 4.415623188 0.002960228
2.234508514 4.415623188 0.002960228
4.458066940 4.415623188 0.002960228
0.001257006 0.002475659 0.105906084
0.075285062 -0.002606959 0.083269775
0.232932478 -0.009308254 0.072871320
0.519042730 -0.021970328 0.065345645
1.001704097 -0.003122511 0.040950086
2.133932829 0.011340347 0.038531750
4.357491493 0.011340347 0.038531750
-0.008567311 0.061421290 0.067962013
0.058772430 0.057628844 0.063538492
0.220083937 0.049265470 0.056616552
0.507407606 0.032803949 0.044241827
1.028227448 0.034197602 0.011916343
2.166784286 0.045328602 0.010055143
4.390342712 0.045328602 0.010055143
-0.024590505 0.205372915 0.047367513
0.032436762 0.203829288 0.040255398
0.199072689 0.198157623 0.029937193
0.498409986 0.186972260 0.014889255
1.101744413 0.153809324 -0.020824945
2.261747360 0.153851986 -0.021758312
4.485306263 0.153851986 -0.021758312
-0.057631753 0.501604140 0.019680411
-0.010138326 0.491265446 0.003932555
0.164300874 0.487913251 -0.011010339
0.480561078 0.479295462 -0.029823432
1.098788738 0.451886594 -0.066463828
2.258485794 0.451886594 -0.066463828
4.482044697 0.451886594 -0.066463828
-0.103304088 1.125546932 -0.033175867
-0.080475390 1.104834557 -0.063877709
0.102045089 1.101874590 -0.080283493
0.440953910 1.093027592 -0.100496180
1.083223701 1.048130751 0.007283136
2.242920399 1.048130751 0.007283136
4.466479301 1.048130751 0.007283136
-0.103304088 2.285243750 -0.033175867
-0.080475390 2.264531374 -0.063877709
0.102045089 2.261571646 -0.080283493
0.440953910 2.252724648 -0.100496180
1.083223701 2.207828045 0.007283136
2.242920399 2.207828045 0.007283136
4.466479301 2.207828045 0.007283136
-0.103304088 4.508802414 -0.033175867
-0.080475390 4.488090038 -0.063877709
0.102045089 4.485129833 -0.080283493
0.440953910 4.476283073 -0.100496180
1.083223701 4.431386471 0.007283136
2.242920399 4.431386471 0.007283136
4.466479301 4.431386471 0.007283136
0.000597633 0.009662001 0.288405746
0.073281653 0.001339307 0.273667634
0.234887108 -0.010402504 0.257972598
0.519309461 -0.026804276 0.241985038
1.020198941 -0.015322811 0.217395887
2.158185482 -0.003891624 0.215484470
4.381744385 -0.003891624 0.215484470
-0.008689992 0.067835450 0.255922377
0.060945582 0.063560121 0.253105760
0.226695299 0.051417120 0.245200425
0.521479249 0.035138678 0.235279620
1.059856534 0.033165496 0.211612493
2.210670948 0.037842393 0.210830480
4.434229851 0.037842393 0.210830480
-0.029332835 0.210496679 0.231627136
0.034863550 0.210259706 0.230731308
0.210023776 0.206087962 0.226350471
0.515618265 0.193778917 0.215154216
1.124361396 0.159682468 0.182702079
2.284058094 0.159682468 0.182702079
4.507617474 0.159682468 0.182702079
-0.062657163 0.504108429 0.208156377
-0.002135299 0.509713888 0.209887549
0.176400512 0.500751853 0.195313334
0.498538405 0.491622418 0.179289341
1.118165493 0.464884996 0.145434737
2.277862549 0.464884996 0.145434737
4.501421452 0.464884996 0.145434737
-0.084501483 1.118111849 0.174856871
-0.053874180 1.144695163 0.177600130
0.113893099 1.115229964 0.136574566
0.459121525 1.107205272 0.117518529
1.102001548 1.091577053 0.088282272
2.261698246 1.091577053 0.088282272
4.485256672 1.091577053 0.088282272
-0.084501483 2.277808666 0.174856871
-0.053874180 2.304392099 0.177600130
0.113893099 2.274926662 0.136574566
0.459121525 2.266902208 0.117518529
1.102001548 2.251274109 0.088282272
2.261698246 2.251274109 0.088282272
4.485256672 2.251274109 0.088282272
-0.084501483 4.501367092 0.174856871
-0.053874180 4.527951241 0.177600130
0.113893099 4.498485565 0.136574566
0.459121525 4.490461349 0.117518529
1.102001548 4.474832535 0.088282272
2.261698246 4.474832535 0.088282272
4.485256672 4.474832535 0.088282272
-0.001560003 0.019422557 0.612259269
0.074568488 0.010731218 0.608570457
0.245212242 -0.005804889 0.600410819
0.543167293 -0.024019491 0.590541065
1.051013350 -0.039983749 0.533673763
2.193392277 -0.030865312 0.532149076
4.416951180 -0.030865312 0.532149076
-0.010535970 0.081553467 0.595481932
0.065096647 0.076357089 0.595351279
0.239608645 0.063555159 0.593581498
0.543515682 0.045093596 0.586588204
1.090133190 0.006383829 0.535497367
2.245881557 0.008462771 0.535149753
4.469440460 0.008462771 0.535149753
-0.030156771 0.229851812 0.583039999
0.042091168 0.228817433 0.584804654
0.224926069 0.223656848 0.584470034
0.539718390 0.210476026 0.578770339
1.137594938 0.165827617 0.538989902
2.297292233 0.165827617 0.538989902
4.520850658 0.165827617 0.538989902
-0.071541123 0.524566054 0.573320091
0.001387521 0.526656210 0.574958444
0.195008442 0.525450587 0.573279560
0.525748491 0.516474068 0.564088702
1.147586107 0.490238100 0.537719548
2.307283163 0.490238100 0.537719548
4.530841827 0.490238100 0.537719548
-0.047919236 1.104696393 0.553346038
-0.026557025 1.138782501 0.557934105
0.157715946 1.159213781 0.562061906
0.489037037 1.133508325 0.529706061
1.132124662 1.119663477 0.511684418
2.291821480 1.119663477 0.511684418
4.515379906 1.119663477 0.511684418
-0.047919236 2.264393330 0.553346038
-0.026557025 2.298479557 0.557934105
0.157715946 2.318910599 0.562061906
0.489037037 2.293205261 0.529706061
1.132124662 2.279360533 0.511684418
2.291821480 2.279360533 0.511684418
4.515379906 2.279360533 0.511684418
-0.047919236 4.487951756 0.553346038
-0.026557025 4.522037983 0.557934105
0.157715946 4.542469501 0.562061906
0.489037037 4.516764164 0.529706061
1.132124662 4.502918720 0.511684418
2.291821480 4.502918720 0.511684418
4.515379906 4.502918720 0.511684418
0.001217248 0.055475593 1.052795053
0.081924029 0.042604636 1.073182464
0.260152906 0.015777970 1.120791197
0.566310942 -0.015736282 1.183293939
1.109751105 -0.047509916 1.167006373
2.269377232 -0.047376778 1.166548610
4.492936134 -0.047376778 1.166548610
-0.007258241 0.114290580 1.096252680
0.072711214 0.104023680 1.120232582
0.255805403 0.081288099 1.175315619
0.567715406 0.060366403 1.189430714
1.121216893 0.028942401 1.174403906
2.280913830 0.028942401 1.174403906
4.504472733 0.028942401 1.174403906
-0.028208818 0.253956676 1.194452047
0.052049309 0.250877827 1.202632785
0.242688671 0.245033652 1.202070594
0.565952837 0.233003780 1.200753808
1.137044787 0.206636742 1.187933803
2.296741962 0.206636742 1.187933803
4.520300388 0.206636742 1.187933803
-0.067702077 0.558563113 1.221353650
0.017851127 0.559415221 1.222008705
0.218982160 0.556723058 1.221138358
0.555130005 0.546058953 1.218904853
1.157306194 0.527141750 1.208542705
2.317003250 0.527141750 1.208542705
4.540561676 0.527141750 1.208542705
0.005341119 1.089820743 1.224989533
0.029364698 1.125483632 1.225960255
0.176051423 1.158991337 1.225742340
0.529532135 1.157828689 1.224805951
1.164970517 1.151858568 1.219319224
2.324667454 1.151858568 1.219319224
4.548226357 1.151858568 1.219319224
0.005341119 2.249517918 1.224989533
0.029364698 2.285180569 1.225960255
0.176051423 2.318688154 1.225742340
0.529532135 2.317525387 1.224805951
1.164970517 2.311555624 1.219319224
2.324667454 2.311555624 1.219319224
4.548226357 2.311555624 1.219319224
0.005341119 4.473076344 1.224989533
0.029364698 4.508739471 1.225960255
0.176051423 4.542246819 1.225742340
0.529532135 4.541084290 1.224805951
1.164970517 4.535114288 1.219319224
2.324667454 4.535114288 1.219319224
4.548226357 4.535114288 1.219319224
0.001217248 0.055475593 2.212491989
0.081924029 0.042604636 2.232879162
0.260152906 0.015777970 2.280488014
0.566310942 -0.015736282 2.342990875
1.109751105 -0.047509916 2.326703072
2.269377232 -0.047376778 2.326245308
4.492936134 -0.047376778 2.326245308
-0.007258241 0.114290580 2.255949497
0.072711214 0.104023680 2.279929638
0.255805403 0.081288099 2.335012436
0.567715406 0.060366403 2.349127531
1.121216893 0.028942401 2.334100723
2.280913830 0.028942401 2.334100723
4.504472733 0.028942401 2.334100723
-0.028208818 0.253956676 2.354148865
0.052049309 0.250877827 2.362329483
0.242688671 0.245033652 2.361767769
0.565952837 0.233003780 2.360450745
1.137044787 0.206636742 2.347630739
2.296741962 0.206636742 2.347630739
4.520300388 0.206636742 2.347630739
-0.067702077 0.558563113 2.381050587
0.017851127 0.559415221 2.381705761
0.218982160 0.556723058 2.380835533
0.555130005 0.546058953 2.378602028
1.157306194 0.527141750 2.368239880
2.317003250 0.527141750 2.368239880
4.540561676 0.527141750 2.368239880
0.005341119 1.089820743 2.384686470
0.029364698 1.125483632 2.385657310
0.176051423 1.158991337 2.385439396
0.529532135 1.157828689 2.384502888
1.164970517 1.151858568 2.379016161
2.324667454 1.151858568 2.379016161
4.548226357 1.151858568 2.379016161
0.005341119 2.249517918 2.384686470
0.029364698 2.285180569 2.385657310
0.176051423 2.318688154 2.385439396
0.529532135 2.317525387 2.384502888
1.164970517 2.311555624 2.379016161
2.324667454 2.311555624 2.379016161
4.548226357 2.311555624 2.379016161
0.005341119 4.473076344 2.384686470
0.029364698 4.508739471 2.385657310
0.176051423 4.542246819 2.385439396
0.529532135 4.541084290 2.384502888
1.164970517 4.535114288 2.379016161
2.324667454 4.535114288 2.379016161
4.548226357 4.535114288 2.379016161
0.001217248 0.055475593 4.436050892
0.081924029 0.042604636 4.456438065
0.260152906 0.015777970 4.504046917
0.566310942 -0.015736282 4.566549301
1.109751105 -0.047509916 4.550261974
2.269377232 -0.047376778 4.549804211
4.492936134 -0.047376778 4.549804211
-0.007258241 0.114290580 4.479508400
0.072711214 0.104023680 4.503488064
0.255805403 0.081288099 4.558571339
0.567715406 0.060366403 4.572686195
1.121216893 0.028942401 4.557659626
2.280913830 0.028942401 4.557659626
4.504472733 0.028942401 4.557659626
-0.028208818 0.253956676 4.577707767
0.052049309 0.250877827 4.585888386
0.242688671 0.245033652 4.585326195
0.565952837 0.233003780 4.584009171
1.137044787 0.206636742 4.571189880
2.296741962 0.206636742 4.571189880
4.520300388 0.206636742 4.571189880
-0.067702077 0.558563113 4.604609489
0.017851127 0.559415221 4.605264187
0.218982160 0.556723058 4.604393959
0.555130005 0.546058953 4.602160454
1.157306194 0.527141750 4.591798306
2.317003250 0.527141750 4.591798306
4.540561676 0.527141750 4.591798306
0.005341119 1.089820743 4.608244896
0.029364698 1.125483632 4.609215736
0.176051423 1.158991337 4.608997822
0.529532135 1.157828689 4.608061790
1.164970517 1.151858568 4.602574825
2.324667454 1.151858568 4.602574825
4.548226357 1.151858568 4.602574825
0.005341119 2.249517918 4.608244896
0.029364698 2.285180569 4.609215736
0.176051423 2.318688154 4.608997822
0.529532135 2.317525387 4.608061790
1.164970517 2.311555624 4.602574825
2.324667454 2.311555624 4.602574825
4.548226357 2.311555624 4.602574825
0.005341119 4.473076344 4.608244896
0.029364698 4.508739471 4.609215736
0.176051423 4.542246819 4.608997822
0.529532135 4.541084290 4.608061790
1.164970517 4.535114288 4.602574825
2.324667454 4.535114288 4.602574825
4.548226357 4.535114288 4.602574825
