Diseas/Assets/HDRP PostProcessing Profiles/HDRP_Cubes/Paradise_cube.cube
TITLE "27x27x27 Adobe/IRIDAS cube 3D LUT exported with GrossGrade v0.2 (beta) 64 bit"
DOMAIN_MIN 0 0 0
DOMAIN_MAX 1 1 1
LUT_3D_SIZE 27
0.002410590 0.002410591 0.002410591
0.002410590 0.002410591 0.002410591
0.016592253 0.000998065 0.000687881
0.048827976 -0.000990181 -0.002134093
0.079008169 -0.002305419 -0.003282037
0.111650258 -0.004158951 -0.004503484
0.145545632 -0.005976190 -0.005871283
0.183644161 -0.007857300 -0.007456577
0.226451740 -0.009962260 -0.009247467
0.279388398 -0.012551553 -0.011351794
0.339019060 -0.015594514 -0.013038305
0.411381632 -0.019386701 -0.015050673
0.497970551 -0.024062276 -0.017896198
0.594292939 -0.029479517 -0.021672536
0.719221652 -0.036800977 -0.027429342
0.868260086 -0.044775251 -0.035525151
0.983982861 -0.007207793 -0.046938363
1.172997832 0.013189996 -0.050349075
1.424285650 0.013189996 -0.050349075
1.740386724 0.013189996 -0.050349075
2.104939938 0.013189996 -0.050349075
2.517949343 0.013189996 -0.050349075
3.041852713 0.013189996 -0.050349075
3.623030186 0.013189996 -0.050349075
4.328498840 0.013189996 -0.050349075
5.169378281 0.013189996 -0.050349075
6.091507912 0.013189996 -0.050349075
0.002410590 0.002410591 0.002410591
0.002410590 0.002410591 0.002410591
0.016592253 0.000998065 0.000687881
0.048827976 -0.000990181 -0.002134093
0.079008169 -0.002305419 -0.003282037
0.111650258 -0.004158951 -0.004503484
0.145545632 -0.005976190 -0.005871283
0.183644161 -0.007857300 -0.007456577
0.226451740 -0.009962260 -0.009247467
0.279388398 -0.012551553 -0.011351794
0.339019060 -0.015594514 -0.013038305
0.411381632 -0.019386701 -0.015050673
0.497970551 -0.024062276 -0.017896198
0.594292939 -0.029479517 -0.021672536
0.719221652 -0.036800977 -0.027429342
0.868260086 -0.044775251 -0.035525151
0.983982861 -0.007207793 -0.046938363
1.172997832 0.013189996 -0.050349075
1.424285650 0.013189996 -0.050349075
1.740386724 0.013189996 -0.050349075
2.104939938 0.013189996 -0.050349075
2.517949343 0.013189996 -0.050349075
3.041852713 0.013189996 -0.050349075
3.623030186 0.013189996 -0.050349075
4.328498840 0.013189996 -0.050349075
5.169378281 0.013189996 -0.050349075
6.091507912 0.013189996 -0.050349075
0.000926164 0.010911704 0.000342368
0.000926164 0.010911704 0.000342368
0.010763945 0.009827416 -0.000121312
0.043891609 0.007298911 -0.003061822
0.074299440 0.006050861 -0.004247871
0.107187703 0.004149793 -0.005585867
0.141619623 0.002173466 -0.006985126
0.180235550 -0.000145046 -0.008521970
0.223322228 -0.002565980 -0.010244700
0.276895106 -0.005741934 -0.012264085
0.337072849 -0.009141332 -0.014067432
0.409891695 -0.013120628 -0.016119584
0.497206926 -0.018084707 -0.019091994
0.594119906 -0.023685757 -0.022919524
0.719591379 -0.031105472 -0.028646372
0.869240344 -0.039162528 -0.036683727
0.987440467 -0.002853158 -0.048096936
1.177434564 0.017029058 -0.051421437
1.428722501 0.017029058 -0.051421437
1.744823575 0.017029058 -0.051421437
2.109376907 0.017029058 -0.051421437
2.522386074 0.017029058 -0.051421437
3.046289444 0.017029058 -0.051421437
3.627467155 0.017029058 -0.051421437
4.332935810 0.017029058 -0.051421437
5.173815250 0.017029058 -0.051421437
6.095944881 0.017029058 -0.051421437
-0.002976554 0.033740323 -0.003767276
-0.002976554 0.033740323 -0.003767276
0.005480729 0.033197436 -0.004211947
0.031980596 0.030912532 -0.005536984
0.063493520 0.029438002 -0.007000031
0.097136028 0.027723657 -0.008590511
0.132315412 0.025909791 -0.010165264
0.171979398 0.023530876 -0.011751215
0.216022104 0.020639962 -0.013538470
0.270900726 0.017191520 -0.015729088
0.332265258 0.013365502 -0.018182751
0.406275809 0.009244920 -0.020446075
0.495013654 0.003867800 -0.023993054
0.593166590 -0.002195380 -0.028068561
0.720041156 -0.010214797 -0.033709377
0.871759892 -0.019348288 -0.041356727
0.999299109 0.012218163 -0.052769903
1.191921711 0.030716382 -0.055862989
1.443209529 0.030716382 -0.055862989
1.759310722 0.030716382 -0.055862989
2.123863697 0.030716382 -0.055862989
2.536873341 0.030716382 -0.055862989
3.060776711 0.030716382 -0.055862989
3.641953945 0.030716382 -0.055862989
4.347422600 0.030716382 -0.055862989
5.188302040 0.030716382 -0.055862989
6.110431671 0.030716382 -0.055862989
-0.006676231 0.059970345 -0.006612753
-0.006676231 0.059970345 -0.006612753
0.000570536 0.059647873 -0.007010458
0.024365883 0.058264419 -0.008278408
0.055051316 0.056572169 -0.009924233
0.089116901 0.055325858 -0.011768161
0.124736518 0.053868581 -0.013577083
0.165054113 0.051917706 -0.015433146
0.209915891 0.049439687 -0.017673541
0.265703082 0.046417922 -0.020356692
0.327979565 0.042789508 -0.023532324
0.403107256 0.038739789 -0.026428599
0.492899776 0.033349071 -0.030686952
0.592195809 0.027330473 -0.034998722
0.720527530 0.019027898 -0.040828988
0.873596311 0.009491719 -0.048141167
1.016015291 0.033501398 -0.059554305
1.211530924 0.050476369 -0.062392674
1.462818623 0.050476369 -0.062392674
1.778919697 0.050476369 -0.062392674
2.143472910 0.050476369 -0.062392674
2.556482315 0.050476369 -0.062392674
3.080385685 0.050476369 -0.062392674
3.661563158 0.050476369 -0.062392674
4.367032051 0.050476369 -0.062392674
5.207911491 0.050476369 -0.062392674
6.130041122 0.050476369 -0.062392674
-0.010109786 0.089519784 -0.009461410
-0.010109786 0.089519784 -0.009461410
-0.003795400 0.089349069 -0.009898921
0.017642761 0.088498354 -0.011275215
0.048177693 0.086912014 -0.013048656
0.082128726 0.085533276 -0.014938349
0.118190318 0.084382102 -0.016946025
0.159132868 0.082811192 -0.019139446
0.204768196 0.080791645 -0.021682648
0.261252254 0.078125127 -0.024730759
0.324376702 0.074953660 -0.028150130
0.400574237 0.071029156 -0.032073352
0.491311550 0.065909393 -0.036761057
0.591574371 0.059996601 -0.041519962
0.721212327 0.051658306 -0.047742780
0.874469161 0.042167444 -0.055159111
1.034670830 0.057146061 -0.066572219
1.233000636 0.072639249 -0.069162793
1.484288335 0.072639249 -0.069162793
1.800389409 0.072639249 -0.069162793
2.164942741 0.072639249 -0.069162793
2.577951908 0.072639249 -0.069162793
3.101855278 0.072639249 -0.069162793
3.683032990 0.072639249 -0.069162793
4.388501644 0.072639249 -0.069162793
5.229381084 0.072639249 -0.069162793
6.151510715 0.072639249 -0.069162793
-0.013701382 0.121233486 -0.012355415
-0.013701382 0.121233486 -0.012355415
-0.008179369 0.121158384 -0.012749108
0.011427587 0.120673418 -0.014153896
0.042185694 0.119428441 -0.016280223
0.075986728 0.117841184 -0.018327631
0.112295136 0.116763823 -0.020403519
0.153734073 0.115480341 -0.022739967
0.200023040 0.113826029 -0.025330076
0.257246077 0.111538991 -0.028501865
0.321136892 0.108762786 -0.032016110
0.398183435 0.105096839 -0.036216717
0.489812583 0.100321822 -0.041155733
0.590962589 0.094566822 -0.046526298
0.721719265 0.086335413 -0.053344309
0.875048757 0.077025957 -0.061301831
1.054620981 0.082167037 -0.072715051
1.255701900 0.096211724 -0.075063422
1.506989598 0.096211724 -0.075063422
1.823090672 0.096211724 -0.075063422
2.187643766 0.096211724 -0.075063422
2.600653410 0.096211724 -0.075063422
3.124556780 0.096211724 -0.075063422
3.705734015 0.096211724 -0.075063422
4.411202431 0.096211724 -0.075063422
5.252081871 0.096211724 -0.075063422
6.174211502 0.096211724 -0.075063422
-0.017883014 0.158171728 -0.015799880
-0.017883014 0.158171728 -0.015799880
-0.012973364 0.158174500 -0.016235998
0.004998861 0.157897234 -0.017929027
0.035826419 0.156870320 -0.020300439
0.070077233 0.155551240 -0.022386316
0.106126115 0.153985322 -0.024386115
0.148190334 0.153153285 -0.026816260
0.195074290 0.151841715 -0.029479936
0.253012389 0.149966002 -0.032741789
0.317654699 0.147577047 -0.036346450
0.395539403 0.144295901 -0.040642422
0.488087833 0.139883280 -0.045687150
0.590142608 0.134373590 -0.051174711
0.721940994 0.126400322 -0.058161423
0.875916779 0.117117137 -0.066327795
1.077858925 0.110897474 -0.077740990
1.281999350 0.123331189 -0.079819992
1.533287048 0.123331189 -0.079819992
1.849388123 0.123331189 -0.079819992
2.213941336 0.123331189 -0.079819992
2.626950741 0.123331189 -0.079819992
3.150854111 0.123331189 -0.079819992
3.732031584 0.123331189 -0.079819992
4.437500477 0.123331189 -0.079819992
5.278379917 0.123331189 -0.079819992
6.200509548 0.123331189 -0.079819992
-0.022665272 0.200407714 -0.019699154
-0.022665272 0.200407714 -0.019699154
-0.017947247 0.200463250 -0.020084884
-0.001090803 0.200397879 -0.021660393
0.029209320 0.199590176 -0.024711685
0.063590877 0.198481977 -0.027034555
0.100184567 0.197165906 -0.029079374
0.141711265 0.195545137 -0.031384960
0.189683557 0.194905937 -0.034192618
0.248276234 0.193351656 -0.037531435
0.313681632 0.191298172 -0.041221160
0.392534375 0.188405707 -0.045620784
0.485970169 0.184340045 -0.050759405
0.589081228 0.179200441 -0.056353744
0.722062111 0.171577871 -0.063452482
0.876647890 0.162531778 -0.071682982
1.086590052 0.152249292 -0.083096147
1.310967922 0.154342473 -0.084878907
1.562255859 0.154342473 -0.084878907
1.878356934 0.154342473 -0.084878907
2.242909908 0.154342473 -0.084878907
2.655919552 0.154342473 -0.084878907
3.179822922 0.154342473 -0.084878907
3.761000156 0.154342473 -0.084878907
4.466468334 0.154342473 -0.084878907
5.307347775 0.154342473 -0.084878907
6.229477406 0.154342473 -0.084878907
-0.028709717 0.253769875 -0.024515525
-0.028709717 0.253769875 -0.024515525
-0.024222521 0.253848076 -0.024864366
-0.008382360 0.253958762 -0.026272122
0.021641476 0.253404826 -0.029418232
0.056035019 0.252538085 -0.032574940
0.092826180 0.251422137 -0.034982845
0.134979859 0.250035048 -0.037353441
0.182408229 0.248355538 -0.040006753
0.242364585 0.247619435 -0.043523159
0.308686823 0.245897621 -0.047306795
0.388604164 0.243358046 -0.051811639
0.483249813 0.239663988 -0.057066366
0.587519825 0.234852821 -0.062768854
0.721774817 0.227552339 -0.069981739
0.877155960 0.219012544 -0.078319073
1.088993311 0.207767516 -0.089732289
1.320098042 0.206367686 -0.091153093
1.571385741 0.206367686 -0.091153093
1.887486815 0.206367686 -0.091153093
2.252039909 0.206367686 -0.091153093
2.665049553 0.206367686 -0.091153093
3.188952923 0.206367686 -0.091153093
3.770130157 0.206367686 -0.091153093
4.475598335 0.206367686 -0.091153093
5.316477776 0.206367686 -0.091153093
6.238607407 0.206367686 -0.091153093
-0.035628986 0.314934283 -0.030442109
-0.035628986 0.314934283 -0.030442109
-0.031436305 0.315010935 -0.030748120
-0.016675662 0.315245718 -0.031999093
0.012801436 0.314922720 -0.035511248
0.047403432 0.314289808 -0.038970705
0.084679700 0.313405693 -0.041716989
0.127455071 0.312226713 -0.044174969
0.175596297 0.310744733 -0.046894222
0.234955862 0.308711588 -0.050223093
0.303028613 0.307983041 -0.054228026
0.384033412 0.305748641 -0.058833938
0.480023861 0.302403361 -0.064210340
0.585526943 0.297922879 -0.070025526
0.721199453 0.290996671 -0.077367365
0.877310097 0.283049345 -0.085817873
1.089147568 0.271804392 -0.097231068
1.319309235 0.270798594 -0.098251849
1.570596933 0.270798594 -0.098251849
1.886698008 0.270798594 -0.098251849
2.251251221 0.270798594 -0.098251849
2.664260626 0.270798594 -0.098251849
3.188163996 0.270798594 -0.098251849
3.769341469 0.270798594 -0.098251849
4.474809647 0.270798594 -0.098251849
5.315689087 0.270798594 -0.098251849
6.237818718 0.270798594 -0.098251849
-0.044233482 0.391010612 -0.037895229
-0.044233482 0.391010612 -0.037895229
-0.040176377 0.391091079 -0.038164541
-0.026431076 0.391386420 -0.039185684
0.002625183 0.391223103 -0.042677846
0.037189189 0.390758812 -0.046547778
0.074791297 0.390045017 -0.049961865
0.118216902 0.389015853 -0.052600868
0.167190284 0.387684584 -0.055387743
0.227672026 0.385828286 -0.058804695
0.295103669 0.383553922 -0.062590390
0.378309339 0.382521898 -0.067469127
0.475768447 0.379471093 -0.072968185
0.582726359 0.375284940 -0.078905195
0.720154583 0.368706495 -0.086393215
0.877888739 0.361321956 -0.095007069
1.089153171 0.350263149 -0.106407575
1.318182826 0.349730462 -0.106948227
1.569470525 0.349730462 -0.106948227
1.885571599 0.349730462 -0.106948227
2.250124931 0.349730462 -0.106948227
2.663134575 0.349730462 -0.106948227
3.187037945 0.349730462 -0.106948227
3.768215179 0.349730462 -0.106948227
4.473683834 0.349730462 -0.106948227
5.314563274 0.349730462 -0.106948227
6.236692905 0.349730462 -0.106948227
-0.054775920 0.484274507 -0.047305118
-0.054775920 0.484274507 -0.047305118
-0.050981209 0.484320313 -0.047538601
-0.037999500 0.484612405 -0.048360966
-0.009842038 0.484569758 -0.052011181
0.024783967 0.484222502 -0.056184139
0.062896840 0.483619392 -0.059999797
0.107086584 0.482705742 -0.062889665
0.156883165 0.481490463 -0.065739624
0.218611747 0.479782164 -0.069248788
0.287332594 0.477653921 -0.073129006
0.370036989 0.474822015 -0.077767104
0.470378876 0.473243713 -0.083611593
0.578972995 0.469283193 -0.089673333
0.718405306 0.462978631 -0.097313821
0.878332198 0.456054986 -0.106111258
1.088870883 0.445432067 -0.117490277
1.316625714 0.445432067 -0.117490277
1.567913651 0.445432067 -0.117490277
1.884014726 0.445432067 -0.117490277
2.248568058 0.445432067 -0.117490277
2.661577225 0.445432067 -0.117490277
3.185480595 0.445432067 -0.117490277
3.766658306 0.445432067 -0.117490277
4.472126961 0.445432067 -0.117490277
5.313006401 0.445432067 -0.117490277
6.235136032 0.445432067 -0.117490277
-0.066733979 0.590088546 -0.058119692
-0.066733979 0.590088546 -0.058119692
-0.063107148 0.590075552 -0.058334649
-0.050145019 0.590256691 -0.059126932
-0.023079908 0.590251565 -0.062613271
0.011183980 0.589948893 -0.066887721
0.049643110 0.589385092 -0.071177699
0.094440922 0.588513374 -0.074504703
0.145227194 0.587346017 -0.077419728
0.208062798 0.585695684 -0.081002206
0.278059304 0.583643854 -0.084967978
0.362363160 0.580921113 -0.089714952
0.462307125 0.577412963 -0.095309824
0.574371159 0.575286925 -0.101794571
0.715957463 0.569276392 -0.109563701
0.878271699 0.562848866 -0.118505105
1.086909413 0.553354442 -0.129274815
1.314664245 0.553354442 -0.129274815
1.565952182 0.553354442 -0.129274815
1.882053256 0.553354442 -0.129274815
2.246606350 0.553354442 -0.129274815
2.659615993 0.553354442 -0.129274815
3.183519363 0.553354442 -0.129274815
3.764696598 0.553354442 -0.129274815
4.470164776 0.553354442 -0.129274815
5.311044216 0.553354442 -0.129274815
6.233173847 0.553354442 -0.129274815
-0.082617432 0.730685055 -0.072737195
-0.082617432 0.730685055 -0.072737195
-0.079168983 0.730590284 -0.072942950
-0.066153556 0.730561614 -0.073753178
-0.040094886 0.730493188 -0.076956272
-0.006117687 0.730154157 -0.081327483
0.032406643 0.729578972 -0.086028427
0.077909566 0.728701890 -0.089902170
0.129779309 0.727518201 -0.092868306
0.193849221 0.725868225 -0.096509688
0.265332937 0.723837078 -0.100543238
0.351542354 0.721173167 -0.105368920
0.453652203 0.717729986 -0.111065261
0.565870762 0.713690579 -0.117296763
0.712158740 0.709934175 -0.125592038
0.877455056 0.703959107 -0.134760678
1.084154367 0.696025789 -0.144762754
1.311909199 0.696025789 -0.144762754
1.563197136 0.696025789 -0.144762754
1.879298210 0.696025789 -0.144762754
2.243851185 0.696025789 -0.144762754
2.656860828 0.696025789 -0.144762754
3.180764198 0.696025789 -0.144762754
3.761941433 0.696025789 -0.144762754
4.467409611 0.696025789 -0.144762754
5.308289051 0.696025789 -0.144762754
6.230418682 0.696025789 -0.144762754
-0.101412617 0.898800552 -0.090633847
-0.101412617 0.898800552 -0.090633847
-0.098033354 0.898615003 -0.090850137
-0.084693693 0.898356080 -0.091749206
-0.058733560 0.898167968 -0.094755679
-0.024392568 0.897747993 -0.099142142
0.014854328 0.897118509 -0.104001790
0.061197646 0.896200299 -0.108267985
0.114319623 0.894980192 -0.111297898
0.179923415 0.893309712 -0.115007594
0.253261566 0.891289771 -0.119149782
0.341535538 0.888670444 -0.124077559
0.446232736 0.885344684 -0.129912511
0.561057329 0.881487668 -0.136287004
0.708823383 0.876338661 -0.144291177
0.880012274 0.867516696 -0.124512240
1.084453344 0.851331055 -0.081101149
1.312208176 0.851331055 -0.081101149
1.563495994 0.851331055 -0.081101149
1.879597068 0.851331055 -0.081101149
2.244150162 0.851331055 -0.081101149
2.657159805 0.851331055 -0.081101149
3.181063175 0.851331055 -0.081101149
3.762240410 0.851331055 -0.081101149
4.467709064 0.851331055 -0.081101149
5.308588505 0.851331055 -0.081101149
6.230718136 0.851331055 -0.081101149
-0.112035938 1.094013214 -0.111021295
-0.112035938 1.094013214 -0.111021295
-0.109784305 1.094421148 -0.111237206
-0.099683844 1.095926166 -0.112101711
-0.078918613 1.098562598 -0.115010798
-0.044256561 1.098182082 -0.119273059
-0.004514145 1.097532988 -0.124001384
0.042420350 1.096603155 -0.128104135
0.096047580 1.095374465 -0.130967125
0.162460476 1.093731880 -0.134478018
0.236636952 1.091756821 -0.138411060
0.325978309 1.089223742 -0.143144295
0.431972951 1.085554838 -0.146300808
0.548314512 1.075651288 -0.120370641
0.698120356 1.061639547 -0.081259422
0.871604800 1.047877908 -0.035966672
1.074811459 1.032367468 0.002960228
1.302566290 1.032367468 0.002960228
1.553854227 1.032367468 0.002960228
1.869955301 1.032367468 0.002960228
2.234508514 1.032367468 0.002960228
2.647517920 1.032367468 0.002960228
3.171421289 1.032367468 0.002960228
3.752598763 1.032367468 0.002960228
4.458066940 1.032367468 0.002960228
5.298946381 1.032367468 0.002960228
6.221076012 1.032367468 0.002960228
-0.112035938 1.321768045 -0.111021295
-0.112035938 1.321768045 -0.111021295
-0.109784305 1.322175980 -0.111237206
-0.099683844 1.323680997 -0.112101711
-0.078918613 1.326317430 -0.115010798
-0.044256561 1.325936913 -0.119273059
-0.004514145 1.325287819 -0.124001384
0.042420350 1.324357986 -0.128104135
0.096047580 1.323129296 -0.130967125
0.162460476 1.321486712 -0.134478018
0.236636952 1.319511652 -0.138411060
0.325978309 1.316978574 -0.143144295
0.431972951 1.313309669 -0.146300808
0.548314512 1.303406119 -0.120370641
0.698120356 1.289394379 -0.081259422
0.871604800 1.275632739 -0.035966672
1.074811459 1.260122299 0.002960228
1.302566290 1.260122299 0.002960228
1.553854227 1.260122299 0.002960228
1.869955301 1.260122299 0.002960228
2.234508514 1.260122299 0.002960228
2.647517920 1.260122299 0.002960228
3.171421289 1.260122299 0.002960228
3.752598763 1.260122299 0.002960228
4.458066940 1.260122299 0.002960228
5.298946381 1.260122299 0.002960228
6.221076012 1.260122299 0.002960228
-0.112035938 1.573055744 -0.111021295
-0.112035938 1.573055744 -0.111021295
-0.109784305 1.573463678 -0.111237206
-0.099683844 1.574968696 -0.112101711
-0.078918613 1.577605128 -0.115010798
-0.044256561 1.577224612 -0.119273059
-0.004514145 1.576575518 -0.124001384
0.042420350 1.575645685 -0.128104135
0.096047580 1.574416995 -0.130967125
0.162460476 1.572774410 -0.134478018
0.236636952 1.570799351 -0.138411060
0.325978309 1.568266273 -0.143144295
0.431972951 1.564597368 -0.146300808
0.548314512 1.554693818 -0.120370641
0.698120356 1.540682077 -0.081259422
0.871604800 1.526920438 -0.035966672
1.074811459 1.511409998 0.002960228
1.302566290 1.511409998 0.002960228
1.553854227 1.511409998 0.002960228
1.869955301 1.511409998 0.002960228
2.234508514 1.511409998 0.002960228
2.647517920 1.511409998 0.002960228
3.171421289 1.511409998 0.002960228
3.752598763 1.511409998 0.002960228
4.458066940 1.511409998 0.002960228
5.298946381 1.511409998 0.002960228
6.221076012 1.511409998 0.002960228
-0.112035938 1.889156938 -0.111021295
-0.112035938 1.889156938 -0.111021295
-0.109784305 1.889564753 -0.111237206
-0.099683844 1.891069889 -0.112101711
-0.078918613 1.893706441 -0.115010798
-0.044256561 1.893325925 -0.119273059
-0.004514145 1.892676711 -0.124001384
0.042420350 1.891746998 -0.128104135
0.096047580 1.890518308 -0.130967125
0.162460476 1.888875604 -0.134478018
0.236636952 1.886900663 -0.138411060
0.325978309 1.884367585 -0.143144295
0.431972951 1.880698442 -0.146300808
0.548314512 1.870794892 -0.120370641
0.698120356 1.856783271 -0.081259422
0.871604800 1.843021631 -0.035966672
1.074811459 1.827511072 0.002960228
1.302566290 1.827511072 0.002960228
1.553854227 1.827511072 0.002960228
1.869955301 1.827511072 0.002960228
2.234508514 1.827511072 0.002960228
2.647517920 1.827511072 0.002960228
3.171421289 1.827511072 0.002960228
3.752598763 1.827511072 0.002960228
4.458066940 1.827511072 0.002960228
5.298946381 1.827511072 0.002960228
6.221076012 1.827511072 0.002960228
-0.112035938 2.253710270 -0.111021295
-0.112035938 2.253710270 -0.111021295
-0.109784305 2.254117966 -0.111237206
-0.099683844 2.255622864 -0.112101711
-0.078918613 2.258259773 -0.115010798
-0.044256561 2.257879257 -0.119273059
-0.004514145 2.257229805 -0.124001384
0.042420350 2.256300211 -0.128104135
0.096047580 2.255071640 -0.130967125
0.162460476 2.253428936 -0.134478018
0.236636952 2.251453876 -0.138411060
0.325978309 2.248920918 -0.143144295
0.431972951 2.245251656 -0.146300808
0.548314512 2.235348225 -0.120370641
0.698120356 2.221336365 -0.081259422
0.871604800 2.207574844 -0.035966672
1.074811459 2.192064047 0.002960228
1.302566290 2.192064047 0.002960228
1.553854227 2.192064047 0.002960228
1.869955301 2.192064047 0.002960228
2.234508514 2.192064047 0.002960228
2.647517920 2.192064047 0.002960228
3.171421289 2.192064047 0.002960228
3.752598763 2.192064047 0.002960228
4.458066940 2.192064047 0.002960228
5.298946381 2.192064047 0.002960228
6.221076012 2.192064047 0.002960228
-0.112035938 2.666719437 -0.111021295
-0.112035938 2.666719437 -0.111021295
-0.109784305 2.667127371 -0.111237206
-0.099683844 2.668632507 -0.112101711
-0.078918613 2.671268940 -0.115010798
-0.044256561 2.670888424 -0.119273059
-0.004514145 2.670239449 -0.124001384
0.042420350 2.669309616 -0.128104135
0.096047580 2.668080807 -0.130967125
0.162460476 2.666438103 -0.134478018
0.236636952 2.664463282 -0.138411060
0.325978309 2.661930084 -0.143144295
0.431972951 2.658261061 -0.146300808
0.548314512 2.648357391 -0.120370641
0.698120356 2.634346008 -0.081259422
0.871604800 2.620584488 -0.035966672
1.074811459 2.605073690 0.002960228
1.302566290 2.605073690 0.002960228
1.553854227 2.605073690 0.002960228
1.869955301 2.605073690 0.002960228
2.234508514 2.605073690 0.002960228
2.647517920 2.605073690 0.002960228
3.171421289 2.605073690 0.002960228
3.752598763 2.605073690 0.002960228
4.458066940 2.605073690 0.002960228
5.298946381 2.605073690 0.002960228
6.221076012 2.605073690 0.002960228
-0.112035938 3.190622807 -0.111021295
-0.112035938 3.190622807 -0.111021295
-0.109784305 3.191030741 -0.111237206
-0.099683844 3.192535877 -0.112101711
-0.078918613 3.195172310 -0.115010798
-0.044256561 3.194791794 -0.119273059
-0.004514145 3.194142818 -0.124001384
0.042420350 3.193212986 -0.128104135
0.096047580 3.191984177 -0.130967125
0.162460476 3.190341473 -0.134478018
0.236636952 3.188366652 -0.138411060
0.325978309 3.185833454 -0.143144295
0.431972951 3.182164431 -0.146300808
0.548314512 3.172260761 -0.120370641
0.698120356 3.158249378 -0.081259422
0.871604800 3.144487858 -0.035966672
1.074811459 3.128977060 0.002960228
1.302566290 3.128977060 0.002960228
1.553854227 3.128977060 0.002960228
1.869955301 3.128977060 0.002960228
2.234508514 3.128977060 0.002960228
2.647517920 3.128977060 0.002960228
3.171421289 3.128977060 0.002960228
3.752598763 3.128977060 0.002960228
4.458066940 3.128977060 0.002960228
5.298946381 3.128977060 0.002960228
6.221076012 3.128977060 0.002960228
-0.112035938 3.771800518 -0.111021295
-0.112035938 3.771800518 -0.111021295
-0.109784305 3.772208214 -0.111237206
-0.099683844 3.773713112 -0.112101711
-0.078918613 3.776350021 -0.115010798
-0.044256561 3.775969505 -0.119273059
-0.004514145 3.775320053 -0.124001384
0.042420350 3.774390459 -0.128104135
0.096047580 3.773161888 -0.130967125
0.162460476 3.771519184 -0.134478018
0.236636952 3.769544125 -0.138411060
0.325978309 3.767011166 -0.143144295
0.431972951 3.763341904 -0.146300808
0.548314512 3.753438473 -0.120370641
0.698120356 3.739426613 -0.081259422
0.871604800 3.725665092 -0.035966672
1.074811459 3.710154295 0.002960228
1.302566290 3.710154295 0.002960228
1.553854227 3.710154295 0.002960228
1.869955301 3.710154295 0.002960228
2.234508514 3.710154295 0.002960228
2.647517920 3.710154295 0.002960228
